tools/kachinova.cube
# KACHINOVA film grade - generated by tools/films.py
# Mirrors grade() in tools/media.py (minus per-frame grain).
LUT_3D_SIZE 5
DOMAIN_MIN 0.0 0.0 0.0
DOMAIN_MAX 1.0 1.0 1.0
0.015686 0.023529 0.035294
0.055568 0.032961 0.045751
0.096010 0.043159 0.057077
0.137092 0.054202 0.069350
0.184784 0.072574 0.089662
0.042132 0.090062 0.073120
0.094688 0.113834 0.099327
0.147792 0.138237 0.126263
0.202563 0.164580 0.155320
0.285584 0.220481 0.216753
0.124032 0.217610 0.176704
0.209016 0.277000 0.245158
0.297367 0.340742 0.319794
0.386534 0.404430 0.392345
0.475469 0.464991 0.457595
0.306569 0.456418 0.414040
0.403214 0.523031 0.483438
0.503938 0.591009 0.549815
0.601442 0.654458 0.608678
0.695395 0.713459 0.661060
0.525700 0.707941 0.627530
0.620071 0.767069 0.679361
0.715823 0.820498 0.720637
0.802156 0.865798 0.755252
0.886053 0.911659 0.797422
0.017786 0.026244 0.070816
0.057431 0.035440 0.081037
0.098894 0.046863 0.093691
0.139794 0.057724 0.105782
0.192361 0.081507 0.132000
0.048855 0.098059 0.114423
0.102215 0.122718 0.141616
0.155200 0.147003 0.168434
0.217493 0.180816 0.204781
0.306711 0.244695 0.277853
0.142056 0.237378 0.230687
0.226197 0.296713 0.300929
0.314745 0.360428 0.375014
0.404267 0.424115 0.446737
0.500909 0.490726 0.516133
0.329192 0.480903 0.473038
0.424140 0.544041 0.536826
0.525394 0.612082 0.602178
0.623382 0.675623 0.660212
0.717744 0.734742 0.712034
0.547794 0.729145 0.678837
0.642677 0.786222 0.726802
0.733700 0.835500 0.764505
0.819185 0.880981 0.801705
0.898523 0.922745 0.840085
0.019802 0.028875 0.106255
0.060450 0.039279 0.117787
0.101713 0.050503 0.130241
0.146521 0.065725 0.147089
0.197901 0.088133 0.171849
0.054484 0.104774 0.154362
0.107708 0.129297 0.181418
0.162575 0.155734 0.210570
0.235783 0.200584 0.258151
0.323893 0.264409 0.333625
0.159209 0.257123 0.286633
0.247417 0.320899 0.361716
0.336275 0.384596 0.435018
0.422239 0.443858 0.500843
0.521833 0.511735 0.569519
0.349800 0.501886 0.527074
0.450003 0.569812 0.594495
0.547015 0.633184 0.654246
0.645473 0.696824 0.711516
0.740347 0.753891 0.759472
0.570032 0.750390 0.729945
0.660384 0.801119 0.770718
0.751652 0.850561 0.808395
0.836282 0.896233 0.848226
0.915838 0.938214 0.886824
0.022968 0.032862 0.143152
0.063399 0.043048 0.154466
0.104471 0.054081 0.166729
0.152154 0.072443 0.187032
0.205387 0.096976 0.214098
0.062055 0.113701 0.196694
0.115152 0.138098 0.223624
0.169918 0.164435 0.252675
0.256903 0.224817 0.319327
0.341116 0.284111 0.389259
0.176366 0.276850 0.342508
0.264715 0.340591 0.417142
0.353882 0.404278 0.489693
0.447496 0.469582 0.559770
0.542923 0.532762 0.622580
0.370564 0.522881 0.580788
0.471292 0.590862 0.647169
0.568800 0.654316 0.706036
0.662760 0.713324 0.758424
0.758050 0.768784 0.803384
0.587438 0.766936 0.776728
0.683198 0.820374 0.818012
0.769541 0.865683 0.852637
0.853450 0.911555 0.894818
0.928466 0.949458 0.929645
0.024827 0.035336 0.178434
0.066279 0.046749 0.191076
0.107170 0.057600 0.203158
0.159728 0.081374 0.229367
0.212833 0.105779 0.256305
0.069579 0.122582 0.238980
0.122558 0.146861 0.265792
0.184846 0.180669 0.302134
0.274061 0.244545 0.375203
0.362412 0.308288 0.449840
0.197531 0.301048 0.403462
0.282093 0.360276 0.472362
0.371615 0.423964 0.544085
0.468259 0.490576 0.613483
0.564181 0.553811 0.675320
0.396233 0.548634 0.638853
0.492748 0.611937 0.699533
0.590742 0.675483 0.757572
0.685111 0.734609 0.809401
0.780860 0.788036 0.850674
0.610047 0.786092 0.824172
0.701079 0.835379 0.861884
0.786574 0.880870 0.899094
0.865924 0.922646 0.937486
0.941176 0.960784 0.972549
