tools/kachinova.cube
# KACHINOVA film grade - generated by tools/films.py
# Mirrors grade() in tools/media.py (minus per-frame grain).
LUT_3D_SIZE 33
DOMAIN_MIN 0.0 0.0 0.0
DOMAIN_MAX 1.0 1.0 1.0
0.015686 0.023529 0.035294
0.020403 0.024389 0.036256
0.025109 0.025237 0.037207
0.029803 0.026073 0.038146
0.035716 0.028334 0.040611
0.040387 0.029148 0.041528
0.045048 0.029952 0.042434
0.049698 0.030744 0.043329
0.055568 0.032961 0.045751
0.060197 0.033733 0.046625
0.064815 0.034494 0.047489
0.070654 0.036680 0.049880
0.075252 0.037421 0.050724
0.079841 0.038152 0.051557
0.085650 0.040309 0.053919
0.090219 0.041021 0.054734
0.096010 0.043159 0.057077
0.100561 0.043852 0.057873
0.106333 0.045972 0.060197
0.110865 0.046647 0.060975
0.116620 0.048749 0.063282
0.121135 0.049407 0.064043
0.126873 0.051492 0.066333
0.131371 0.052134 0.067077
0.137092 0.054202 0.069350
0.141575 0.054827 0.070078
0.147280 0.056880 0.072336
0.152978 0.058925 0.074586
0.158007 0.060147 0.075969
0.165210 0.063830 0.080014
0.172405 0.067505 0.084051
0.177603 0.068912 0.085639
0.184784 0.072574 0.089662
0.018625 0.031350 0.039463
0.023303 0.032172 0.040386
0.027971 0.032982 0.041299
0.033858 0.035217 0.043739
0.038504 0.036005 0.044630
0.043140 0.036783 0.045511
0.047765 0.037551 0.046381
0.053610 0.039744 0.048779
0.058215 0.040491 0.049629
0.062810 0.041228 0.050469
0.068625 0.043391 0.052836
0.073200 0.044109 0.053657
0.078997 0.046253 0.056006
0.083553 0.046952 0.056808
0.089331 0.049078 0.059138
0.093869 0.049759 0.059922
0.099629 0.051866 0.062234
0.104150 0.052530 0.063000
0.109893 0.054620 0.065295
0.114397 0.055267 0.066045
0.120123 0.057340 0.068323
0.124611 0.057971 0.069056
0.130321 0.060028 0.071319
0.136023 0.062078 0.073574
0.140488 0.062685 0.074283
0.147505 0.066166 0.078106
0.152714 0.067584 0.079706
0.159907 0.071257 0.083740
0.167093 0.074923 0.087768
0.172281 0.076321 0.089347
0.179453 0.079973 0.093361
0.186619 0.083619 0.097369
0.193778 0.087259 0.101370
0.021436 0.039045 0.043505
0.026079 0.039830 0.044392
0.031941 0.042039 0.046807
0.036562 0.042803 0.047673
0.041173 0.043557 0.048529
0.047005 0.045736 0.050914
0.051596 0.046470 0.051750
0.056177 0.047194 0.052576
0.061980 0.049344 0.054931
0.066542 0.050049 0.055739
0.072326 0.052180 0.058075
0.076870 0.052867 0.058864
0.082635 0.054980 0.061183
0.087162 0.055649 0.061954
0.092910 0.057744 0.064255
0.097419 0.058396 0.065009
0.103151 0.060475 0.067293
0.107643 0.061111 0.068031
0.113359 0.063173 0.070299
0.119066 0.065228 0.072559
0.123535 0.065840 0.073273
0.129797 0.068499 0.076196
0.135011 0.069922 0.077800
0.142208 0.073600 0.081840
0.149398 0.077270 0.085872
0.154591 0.078672 0.087454
0.161768 0.082329 0.091473
0.168937 0.085979 0.095485
0.176101 0.089622 0.099490
0.181267 0.090998 0.101047
0.188418 0.094629 0.105040
0.195563 0.098254 0.109027
0.202702 0.101873 0.113008
0.024127 0.046619 0.047426
0.029965 0.048804 0.049817
0.034563 0.049544 0.050659
0.039150 0.050274 0.051492
0.044959 0.052430 0.053853
0.049527 0.053141 0.054667
0.055317 0.055278 0.057009
0.059867 0.055971 0.057804
0.065638 0.058090 0.060128
0.070170 0.058764 0.060905
0.075924 0.060865 0.063211
0.080438 0.061523 0.063971
0.086175 0.063607 0.066260
0.090673 0.064247 0.067003
0.096393 0.066315 0.069276
0.100875 0.066940 0.070003
0.106579 0.068992 0.072260
0.112276 0.071036 0.074509
0.117305 0.072257 0.075892
0.124507 0.075939 0.079936
0.131701 0.079614 0.083972
0.136899 0.081020 0.085559
0.144079 0.084681 0.089582
0.151253 0.088336 0.093598
0.156430 0.089722 0.095165
0.163591 0.093363 0.099168
0.170746 0.096998 0.103165
0.177895 0.100627 0.107156
0.183047 0.101988 0.108698
0.190184 0.105605 0.112677
0.197315 0.109217 0.116651
0.204441 0.112823 0.120619
0.211562 0.116424 0.124581
0.027934 0.055513 0.052771
0.032509 0.056230 0.053590
0.038304 0.058373 0.055938
0.042860 0.059072 0.056739
0.048637 0.061196 0.059069
0.053174 0.061876 0.059852
0.058934 0.063983 0.062163
0.063454 0.064646 0.062929
0.069196 0.066735 0.065223
0.073699 0.067381 0.065971
0.079424 0.069454 0.068249
0.083911 0.070083 0.068981
0.089621 0.072140 0.071243
0.095322 0.074190 0.073498
0.099786 0.074796 0.074207
0.106802 0.078276 0.078029
0.114001 0.081955 0.082070
0.119203 0.083366 0.083662
0.126388 0.087031 0.087689
0.133566 0.090690 0.091709
0.138748 0.092080 0.093280
0.145913 0.095725 0.097288
0.153071 0.099364 0.101288
0.160224 0.102997 0.105283
0.165380 0.104362 0.106829
0.172521 0.107983 0.110812
0.179656 0.111598 0.114789
0.186785 0.115208 0.118760
0.191919 0.116550 0.120284
0.199037 0.120149 0.124244
0.206151 0.123743 0.128200
0.213259 0.127332 0.132151
0.220363 0.130916 0.136097
0.031632 0.064299 0.058007
0.036175 0.064985 0.058795
0.041940 0.067097 0.061112
0.046466 0.067765 0.061883
0.052213 0.069860 0.064183
0.056722 0.070511 0.064937
0.062452 0.072589 0.067220
0.066944 0.073224 0.067957
0.072659 0.075286 0.070224
0.078365 0.077340 0.072483
0.082834 0.077951 0.073197
0.089095 0.080610 0.076119
0.096299 0.084294 0.080165
0.101505 0.085709 0.081761
0.108694 0.089379 0.085793
0.115877 0.093041 0.089817
0.121062 0.094436 0.091393
0.128232 0.098085 0.095404
0.135394 0.101728 0.099409
0.140560 0.103103 0.100965
0.147711 0.106734 0.104957
0.154855 0.110359 0.108944
0.161994 0.113977 0.112924
0.169126 0.117590 0.116899
0.174263 0.118936 0.118426
0.181385 0.122539 0.122390
0.188502 0.126136 0.126349
0.195614 0.129728 0.130303
0.202721 0.133315 0.134252
0.207833 0.134635 0.135754
0.214930 0.138213 0.139693
0.222023 0.141786 0.143628
0.229112 0.145356 0.147559
0.035227 0.072982 0.063139
0.039741 0.073638 0.063898
0.045477 0.075721 0.066187
0.049974 0.076361 0.066929
0.055694 0.078428 0.069201
0.061405 0.080487 0.071465
0.065878 0.081103 0.072184
0.071575 0.083147 0.074433
0.076603 0.084368 0.075815
0.083804 0.088049 0.079858
0.090998 0.091723 0.083894
0.096194 0.093129 0.085480
0.103374 0.096789 0.089502
0.110548 0.100443 0.093518
0.117715 0.104090 0.097527
0.122885 0.105469 0.099087
0.130039 0.109103 0.103083
0.137187 0.112732 0.107073
0.144329 0.116354 0.111058
0.149475 0.117709 0.112594
0.156606 0.121320 0.116567
0.163731 0.124926 0.120534
0.170852 0.128526 0.124496
0.177966 0.132121 0.128453
0.183086 0.133450 0.129963
0.190191 0.137035 0.133910
0.197292 0.140616 0.137852
0.204387 0.144192 0.141790
0.211479 0.147764 0.145724
0.218566 0.151331 0.149653
0.225649 0.154895 0.153579
0.230739 0.156193 0.155058
0.238710 0.160638 0.159844
0.038725 0.081567 0.068175
0.044442 0.083632 0.070445
0.048920 0.084253 0.071168
0.054621 0.086301 0.073422
0.059084 0.086907 0.074130
0.066100 0.090386 0.077951
0.073298 0.094065 0.081992
0.078499 0.095475 0.083583
0.085684 0.099139 0.087609
0.092861 0.102797 0.091629
0.100032 0.106448 0.095642
0.105207 0.107832 0.097206
0.112365 0.111470 0.101206
0.119517 0.115102 0.105201
0.124672 0.116467 0.106746
0.131812 0.120087 0.110728
0.138947 0.123702 0.114705
0.146075 0.127311 0.118676
0.153199 0.130914 0.122641
0.158327 0.132251 0.124159
0.165440 0.135845 0.128114
0.172548 0.139433 0.132064
0.179651 0.143017 0.136010
0.186750 0.146596 0.139951
0.193844 0.150170 0.143887
0.200934 0.153740 0.147819
0.206030 0.155045 0.149305
0.213112 0.158607 0.153228
0.220190 0.162165 0.157149
0.230398 0.168833 0.164104
0.241947 0.176832 0.172360
0.253492 0.184827 0.180611
0.265034 0.192819 0.188860
0.042132 0.090062 0.073120
0.048393 0.092720 0.076042
0.055596 0.096404 0.080087
0.060802 0.097818 0.081683
0.067990 0.101487 0.085714
0.075172 0.105149 0.089738
0.080357 0.106543 0.091312
0.087526 0.110192 0.095323
0.094688 0.113834 0.099327
0.101844 0.117470 0.103325
0.107003 0.118839 0.104875
0.114147 0.122463 0.108861
0.121285 0.126081 0.112841
0.128417 0.129694 0.116815
0.133554 0.131039 0.118341
0.140675 0.134641 0.122305
0.147792 0.138237 0.126263
0.154903 0.141829 0.130217
0.162009 0.145416 0.134165
0.169111 0.148997 0.138109
0.174218 0.150313 0.139606
0.181310 0.153886 0.143541
0.188399 0.157455 0.147471
0.195483 0.161019 0.151398
0.202563 0.164580 0.155320
0.210536 0.169027 0.160107
0.222086 0.177028 0.168365
0.233634 0.185025 0.176618
0.245178 0.193019 0.184869
0.256521 0.201010 0.193577
0.263567 0.204513 0.197823
0.274576 0.212498 0.207292
0.285584 0.220481 0.216753
0.050294 0.103832 0.083815
0.057480 0.107498 0.087844
0.062670 0.108897 0.089423
0.069842 0.112550 0.093437
0.077008 0.116196 0.097446
0.082178 0.117575 0.099005
0.089332 0.121208 0.103001
0.096479 0.124836 0.106991
0.103621 0.128458 0.110974
0.110757 0.132074 0.114952
0.115897 0.133423 0.116482
0.123022 0.137028 0.120449
0.130141 0.140628 0.124411
0.137256 0.144223 0.128367
0.144365 0.147813 0.132319
0.149479 0.149136 0.133823
0.156579 0.152716 0.137765
0.163675 0.156292 0.141703
0.170766 0.159863 0.145636
0.177853 0.163430 0.149565
0.184936 0.166994 0.153490
0.192015 0.170553 0.157411
0.202225 0.177222 0.164368
0.209545 0.180736 0.168011
0.221091 0.188732 0.176263
0.232634 0.196725 0.184512
0.243976 0.204715 0.193220
0.254986 0.212702 0.202692
0.265995 0.220686 0.212158
0.277004 0.228668 0.221615
0.288014 0.236647 0.231062
0.299026 0.244624 0.240495
0.310042 0.252598 0.249913
0.059327 0.118555 0.095561
0.064500 0.119938 0.097125
0.071658 0.123576 0.101125
0.078809 0.127207 0.105118
0.085954 0.130833 0.109106
0.091104 0.132191 0.110645
0.098238 0.135805 0.114621
0.105366 0.139414 0.118591
0.112489 0.143017 0.122556
0.119606 0.146615 0.126516
0.124729 0.147946 0.128028
0.131836 0.151534 0.131978
0.138939 0.155117 0.135923
0.146038 0.158696 0.139863
0.153132 0.162270 0.143799
0.160221 0.165840 0.147731
0.167307 0.169405 0.151659
0.172398 0.170706 0.153140
0.179475 0.174264 0.157059
0.189684 0.180931 0.164015
0.201232 0.188930 0.172270
0.212777 0.196925 0.180521
0.224319 0.204917 0.188769
0.235397 0.212905 0.198090
0.246406 0.220891 0.207560
0.257415 0.228874 0.217022
0.268425 0.236855 0.226475
0.279436 0.244833 0.235915
0.290450 0.252809 0.245342
0.301468 0.260783 0.254752
0.312491 0.268755 0.264143
0.323521 0.276725 0.273514
0.330568 0.280208 0.277689
0.068286 0.133205 0.107235
0.073439 0.134567 0.108777
0.080576 0.138185 0.112757
0.087708 0.141797 0.116731
0.094834 0.145404 0.120699
0.099965 0.146743 0.122220
0.107081 0.150339 0.126178
0.114192 0.153930 0.130131
0.121298 0.157516 0.134079
0.128399 0.161098 0.138022
0.135495 0.164675 0.141961
0.142588 0.168247 0.145895
0.147686 0.169554 0.147383
0.154769 0.173118 0.151309
0.161849 0.176679 0.155231
0.169821 0.181125 0.160018
0.181372 0.189125 0.168275
0.192919 0.197123 0.176528
0.204463 0.205117 0.184779
0.215806 0.213107 0.193487
0.226817 0.221095 0.202960
0.237826 0.229080 0.212426
0.248836 0.237062 0.221884
0.255876 0.240556 0.226114
0.266886 0.248534 0.235553
0.277900 0.256509 0.244979
0.288917 0.264482 0.254388
0.299939 0.272453 0.263779
0.310968 0.280422 0.273149
0.322005 0.288390 0.282496
0.333050 0.296357 0.291818
0.344105 0.304322 0.301112
0.355171 0.312286 0.310378
0.077178 0.147788 0.118840
0.082312 0.149131 0.120364
0.089431 0.152730 0.124325
0.096545 0.156325 0.128282
0.103654 0.159914 0.132233
0.110758 0.163498 0.136179
0.115867 0.164817 0.137678
0.122962 0.168392 0.141615
0.130053 0.171963 0.145548
0.137140 0.175530 0.149477
0.144222 0.179092 0.153401
0.151301 0.182651 0.157322
0.161510 0.189320 0.164279
0.173059 0.197319 0.172534
0.184605 0.205315 0.180787
0.191919 0.208823 0.184422
0.203261 0.216812 0.193129
0.214271 0.224799 0.202601
0.225279 0.232783 0.212067
0.236288 0.240764 0.221524
0.247297 0.248743 0.230970
0.258309 0.256719 0.240403
0.269325 0.264694 0.249821
0.280345 0.272666 0.259222
0.291370 0.280637 0.268603
0.302403 0.288605 0.277962
0.313444 0.296573 0.287296
0.324494 0.304539 0.296605
0.335554 0.312503 0.305886
0.346626 0.320467 0.315137
0.357710 0.328429 0.324355
0.368808 0.336391 0.333540
0.379920 0.344353 0.342689
0.086008 0.162309 0.130385
0.091125 0.163635 0.131891
0.098228 0.167218 0.135836
0.105325 0.170796 0.139776
0.112419 0.174370 0.143712
0.119508 0.177939 0.147643
0.126593 0.181505 0.151570
0.133674 0.185066 0.155493
0.141647 0.189513 0.160281
0.148969 0.193029 0.163925
0.160517 0.201027 0.172180
0.172062 0.209022 0.180431
0.183603 0.217014 0.188679
0.194681 0.225002 0.198000
0.205690 0.232988 0.207469
0.216699 0.240971 0.216931
0.227708 0.248951 0.226383
0.238719 0.256929 0.235824
0.249733 0.264905 0.245250
0.260751 0.272878 0.254660
0.271774 0.280850 0.264051
0.282803 0.288820 0.273421
0.293840 0.296788 0.282769
0.304886 0.304755 0.292091
0.315941 0.312720 0.301386
0.327007 0.320685 0.310652
0.338085 0.328648 0.319887
0.349176 0.336610 0.329089
0.360280 0.344572 0.338256
0.367364 0.348047 0.342322
0.378492 0.356008 0.351433
0.389635 0.363969 0.360506
0.400796 0.371929 0.369538
0.094783 0.176775 0.141873
0.101875 0.180347 0.145807
0.108962 0.183915 0.149737
0.114056 0.185217 0.151220
0.121136 0.188777 0.155142
0.129107 0.193223 0.159929
0.140657 0.201223 0.168185
0.152204 0.209220 0.176439
0.163747 0.217214 0.184688
0.175090 0.225204 0.193396
0.186101 0.233192 0.202869
0.197110 0.241176 0.212335
0.208120 0.249158 0.221793
0.219130 0.257138 0.231240
0.230142 0.265115 0.240674
0.241158 0.273090 0.250093
0.248200 0.276577 0.254296
0.259222 0.284548 0.263687
0.270251 0.292518 0.273056
0.281287 0.300485 0.282403
0.292332 0.308451 0.291725
0.303387 0.316416 0.301020
0.314453 0.324380 0.310285
0.325530 0.332343 0.319520
0.336621 0.340305 0.328722
0.347725 0.348267 0.337889
0.358845 0.356228 0.347020
0.369980 0.364188 0.356112
0.381132 0.372149 0.365165
0.392302 0.380109 0.374176
0.403490 0.388070 0.383145
0.414697 0.396030 0.392070
0.425925 0.403992 0.400950
0.103508 0.191191 0.153313
0.110587 0.194750 0.157233
0.120796 0.201418 0.164189
0.132345 0.209417 0.172445
0.143890 0.217413 0.180697
0.155433 0.225405 0.188945
0.166511 0.233395 0.198267
0.177521 0.241381 0.207737
0.184563 0.244879 0.211976
0.195571 0.252860 0.221432
0.206581 0.260839 0.230879
0.217592 0.268815 0.240312
0.228608 0.276789 0.249729
0.239627 0.284761 0.259130
0.250653 0.292732 0.268510
0.261686 0.300700 0.277869
0.272726 0.308668 0.287204
0.283776 0.316633 0.296513
0.294837 0.324598 0.305793
0.305908 0.332561 0.315044
0.316992 0.340524 0.324262
0.328090 0.348486 0.333447
0.339202 0.356447 0.342596
0.350329 0.364408 0.351708
0.361472 0.372368 0.360781
0.372633 0.380329 0.369813
0.383812 0.388289 0.378804
0.395009 0.396250 0.387751
0.406227 0.404211 0.396653
0.417464 0.412172 0.405509
0.428723 0.420134 0.414318
0.440004 0.428097 0.423080
0.451307 0.436061 0.431792
0.124032 0.217610 0.176704
0.131347 0.221119 0.180341
0.142888 0.229111 0.188588
0.153965 0.237099 0.197909
0.164974 0.245084 0.207378
0.175983 0.253067 0.216840
0.186992 0.261047 0.226292
0.198003 0.269025 0.235732
0.209016 0.277000 0.245158
0.220034 0.284974 0.254568
0.231057 0.292945 0.263959
0.242086 0.300915 0.273329
0.253123 0.308883 0.282676
0.264168 0.316850 0.291998
0.275223 0.324815 0.301293
0.286289 0.332779 0.310559
0.297367 0.340742 0.319794
0.308458 0.348705 0.328996
0.319562 0.356666 0.338163
0.330682 0.364627 0.347294
0.341817 0.372588 0.356387
0.352969 0.380548 0.365440
0.364139 0.388509 0.374451
0.375327 0.396469 0.383420
0.386534 0.404430 0.392345
0.397761 0.412391 0.401224
0.409010 0.420353 0.410057
0.420279 0.428315 0.418842
0.431571 0.436279 0.427579
0.438753 0.439757 0.431425
0.450694 0.448030 0.440165
0.463069 0.456510 0.448906
0.475469 0.464991 0.457595
0.145385 0.245288 0.202778
0.156394 0.253273 0.212244
0.167403 0.261255 0.221702
0.178413 0.269234 0.231149
0.189426 0.277211 0.240582
0.200441 0.285186 0.250001
0.211462 0.293158 0.259401
0.222488 0.301129 0.268783
0.233521 0.309098 0.278142
0.244562 0.317066 0.287477
0.255612 0.325032 0.296786
0.266673 0.332997 0.306067
0.273735 0.336475 0.310192
0.284812 0.344438 0.319427
0.295903 0.352400 0.328629
0.307007 0.360361 0.337796
0.318126 0.368322 0.346926
0.329262 0.376283 0.356019
0.340414 0.384243 0.365072
0.351583 0.392203 0.374083
0.362772 0.400164 0.383052
0.373979 0.408125 0.391977
0.385206 0.416086 0.400857
0.396455 0.424048 0.409690
0.407725 0.432011 0.418475
0.419016 0.439974 0.427212
0.430434 0.447990 0.435913
0.442797 0.456469 0.444678
0.455184 0.464949 0.453393
0.467595 0.473430 0.462056
0.480031 0.481914 0.470668
0.492491 0.490399 0.479227
0.504978 0.498886 0.487733
0.169835 0.277420 0.236002
0.176876 0.280911 0.240220
0.187891 0.288885 0.249637
0.198910 0.296857 0.259038
0.209936 0.304827 0.268418
0.220968 0.312795 0.277777
0.232009 0.320762 0.287111
0.243059 0.328728 0.296420
0.254119 0.336693 0.305700
0.265190 0.344656 0.314951
0.276274 0.352618 0.324169
0.287372 0.360580 0.333354
0.298483 0.368541 0.342503
0.309611 0.376502 0.351615
0.320754 0.384463 0.360688
0.331915 0.392423 0.369720
0.343094 0.400384 0.378710
0.354291 0.408344 0.387657
0.365509 0.416305 0.396560
0.376746 0.424267 0.405416
0.388005 0.432229 0.414225
0.399286 0.440192 0.422987
0.410589 0.448156 0.431699
0.422530 0.456429 0.440438
0.434905 0.464908 0.449178
0.447304 0.473388 0.457867
0.459727 0.481870 0.466504
0.472175 0.490354 0.475089
0.484648 0.498840 0.483622
0.497147 0.507328 0.492102
0.509671 0.515818 0.500529
0.522222 0.524310 0.508904
0.534798 0.532805 0.517226
0.190339 0.305041 0.263866
0.201369 0.313010 0.273236
0.212405 0.320978 0.282583
0.223450 0.328945 0.291906
0.234505 0.336910 0.301200
0.245571 0.344874 0.310466
0.256649 0.352837 0.319701
0.267740 0.360799 0.328903
0.278844 0.368761 0.338070
0.289964 0.376722 0.347201
0.301099 0.384682 0.356294
0.312251 0.392643 0.365346
0.323421 0.400603 0.374358
0.334609 0.408564 0.383327
0.345816 0.416524 0.392252
0.357043 0.424486 0.401131
0.368292 0.432447 0.409964
0.379561 0.440410 0.418749
0.390853 0.448373 0.427486
0.402269 0.456389 0.436186
0.414632 0.464867 0.444951
0.427019 0.473347 0.453666
0.439429 0.481828 0.462328
0.451865 0.490310 0.470939
0.459624 0.494053 0.474726
0.472098 0.502540 0.483259
0.484597 0.511028 0.491740
0.497123 0.519519 0.500168
0.509674 0.528012 0.508544
0.522252 0.536508 0.516867
0.534856 0.545007 0.525137
0.547486 0.553509 0.533356
0.560143 0.562013 0.541524
0.214895 0.337127 0.296693
0.225955 0.345091 0.305974
0.237027 0.353055 0.315225
0.248111 0.361018 0.324443
0.259209 0.368980 0.333628
0.270320 0.376941 0.342778
0.281448 0.384902 0.351890
0.292591 0.392862 0.360962
0.303752 0.400823 0.369995
0.314931 0.408783 0.378985
0.326128 0.416744 0.387932
0.333261 0.420219 0.391884
0.344488 0.428181 0.400763
0.355737 0.436143 0.409597
0.367007 0.444105 0.418382
0.378299 0.452069 0.427119
0.389716 0.460085 0.435820
0.402079 0.468564 0.444586
0.414466 0.477044 0.453300
0.426877 0.485526 0.461964
0.439313 0.494009 0.470575
0.451774 0.502494 0.479135
0.464261 0.510981 0.487641
0.476773 0.519471 0.496096
0.489311 0.527963 0.504497
0.501875 0.536457 0.512846
0.514466 0.544954 0.521142
0.527082 0.553453 0.529387
0.539725 0.561956 0.537580
0.552395 0.570462 0.545721
0.565091 0.578971 0.553812
0.577813 0.587483 0.561853
0.585731 0.591258 0.565372
0.235556 0.364713 0.324076
0.246654 0.372675 0.333261
0.257765 0.380636 0.342410
0.268893 0.388597 0.351522
0.280036 0.396557 0.360595
0.291197 0.404517 0.369627
0.302376 0.412478 0.378617
0.313573 0.420439 0.387564
0.324791 0.428400 0.396467
0.336028 0.436361 0.405323
0.347287 0.444323 0.414132
0.358568 0.452287 0.422894
0.369871 0.460251 0.431606
0.381812 0.468523 0.440346
0.394187 0.477003 0.449086
0.406586 0.485483 0.457775
0.419010 0.493966 0.466412
0.431458 0.502450 0.474997
0.443931 0.510935 0.483530
0.456430 0.519423 0.492010
0.468955 0.527914 0.500438
0.481506 0.536406 0.508813
0.494082 0.544902 0.517135
0.506686 0.553400 0.525405
0.519315 0.561900 0.533623
0.527182 0.565662 0.537223
0.539852 0.574169 0.545366
0.552549 0.582680 0.553458
0.565272 0.591193 0.561501
0.578022 0.599711 0.569494
0.590797 0.608232 0.577440
0.603599 0.616757 0.585338
0.616425 0.625286 0.593191
0.260381 0.396777 0.356200
0.271533 0.404737 0.365253
0.282702 0.412698 0.374265
0.293891 0.420658 0.383234
0.305098 0.428619 0.392158
0.316325 0.436580 0.401038
0.327574 0.444542 0.409871
0.338843 0.452504 0.418656
0.350135 0.460468 0.427393
0.361552 0.468484 0.436093
0.373915 0.476962 0.444859
0.386301 0.485442 0.453573
0.398712 0.493923 0.462236
0.411148 0.502406 0.470847
0.423608 0.510890 0.479406
0.436094 0.519377 0.487912
0.448606 0.527866 0.496366
0.461143 0.536357 0.504766
0.468958 0.540109 0.508452
0.481536 0.548605 0.516776
0.494140 0.557104 0.525047
0.506771 0.565606 0.533266
0.519428 0.574111 0.541434
0.532111 0.582619 0.549551
0.544821 0.591130 0.557617
0.557557 0.599645 0.565635
0.570319 0.608164 0.573604
0.583106 0.616687 0.581525
0.595920 0.625213 0.589400
0.603891 0.629002 0.592845
0.616745 0.637537 0.600655
0.629623 0.646077 0.608422
0.642526 0.654621 0.616147
0.285410 0.428838 0.387839
0.296628 0.436799 0.396741
0.307865 0.444761 0.405597
0.319124 0.452723 0.414407
0.330404 0.460685 0.423168
0.341707 0.468649 0.431880
0.353648 0.476922 0.440619
0.366023 0.485401 0.449359
0.373749 0.489139 0.453208
0.386160 0.497621 0.461872
0.398596 0.506104 0.470483
0.411058 0.514590 0.479043
0.423544 0.523077 0.487550
0.436056 0.531567 0.496004
0.448595 0.540059 0.504406
0.461159 0.548553 0.512755
0.473750 0.557050 0.521052
0.486367 0.565550 0.529296
0.499010 0.574053 0.537489
0.511680 0.582559 0.545631
0.524376 0.591069 0.553722
0.537098 0.599582 0.561764
0.549847 0.608098 0.569756
0.557781 0.611876 0.573253
0.570570 0.620400 0.581176
0.583385 0.628929 0.589053
0.596225 0.637461 0.596885
0.609090 0.645998 0.604672
0.621980 0.654539 0.612418
0.634894 0.663085 0.620122
0.642926 0.666894 0.623494
0.655878 0.675449 0.631142
0.668853 0.684010 0.638754
0.306569 0.456418 0.414040
0.317850 0.464381 0.422801
0.329153 0.472345 0.431513
0.341095 0.480618 0.440253
0.353470 0.489098 0.448993
0.365869 0.497578 0.457682
0.378292 0.506061 0.466320
0.390741 0.514545 0.474905
0.403214 0.523031 0.483438
0.415713 0.531519 0.491919
0.428238 0.540010 0.500346
0.440789 0.548503 0.508721
0.453366 0.556998 0.517044
0.465970 0.565496 0.525314
0.478600 0.573997 0.533533
0.491256 0.582501 0.541699
0.503938 0.591009 0.549815
0.511835 0.594777 0.553369
0.524558 0.603292 0.561411
0.537308 0.611809 0.569405
0.550084 0.620331 0.577351
0.562885 0.628856 0.585250
0.575712 0.637386 0.593104
0.588565 0.645920 0.600913
0.601442 0.654458 0.608678
0.609451 0.658259 0.612076
0.622367 0.666807 0.619782
0.635306 0.675360 0.627449
0.648269 0.683917 0.635078
0.661255 0.692480 0.642672
0.674263 0.701048 0.650231
0.682352 0.704880 0.653545
0.695395 0.713459 0.661060
0.333197 0.489057 0.444766
0.345584 0.497537 0.453481
0.357995 0.506018 0.462144
0.370430 0.514501 0.470755
0.382891 0.522986 0.479314
0.395377 0.531473 0.487820
0.407889 0.539962 0.496274
0.420427 0.548453 0.504675
0.432990 0.556947 0.513024
0.445580 0.565443 0.521320
0.458196 0.573943 0.529563
0.466055 0.577703 0.533176
0.478712 0.586208 0.541344
0.491396 0.594717 0.549461
0.504106 0.603228 0.557528
0.516842 0.611744 0.565546
0.529605 0.620263 0.573515
0.542393 0.628786 0.581437
0.555207 0.637313 0.589312
0.568046 0.645844 0.597143
0.576033 0.649638 0.600568
0.588911 0.658178 0.608335
0.601814 0.666722 0.616061
0.614742 0.675272 0.623747
0.627692 0.683826 0.631394
0.640666 0.692386 0.639005
0.648734 0.696209 0.642338
0.661744 0.704779 0.649900
0.674775 0.713355 0.657429
0.687828 0.721936 0.664929
0.700901 0.730523 0.672400
0.709032 0.734375 0.675682
0.722163 0.742539 0.682440
0.362575 0.522941 0.475177
0.375048 0.531427 0.483709
0.387546 0.539915 0.492189
0.395340 0.543663 0.495913
0.407878 0.552155 0.504314
0.420443 0.560650 0.512664
0.433034 0.569147 0.520961
0.445651 0.577647 0.529206
0.458295 0.586151 0.537399
0.470965 0.594657 0.545541
0.483661 0.603167 0.553633
0.496384 0.611680 0.561675
0.509133 0.620196 0.569667
0.521908 0.628717 0.577612
0.534708 0.637241 0.585510
0.542672 0.641028 0.588965
0.555513 0.649561 0.596797
0.568378 0.658098 0.604585
0.581269 0.666640 0.612331
0.594183 0.675186 0.620036
0.607122 0.683737 0.627701
0.615168 0.687552 0.631057
0.628143 0.696113 0.638669
0.641142 0.704680 0.646247
