tools/kachinova.cube
# KACHINOVA film grade - generated by tools/films.py
# Mirrors grade() in tools/media.py (minus per-frame grain).
LUT_3D_SIZE 9
DOMAIN_MIN 0.0 0.0 0.0
DOMAIN_MAX 1.0 1.0 1.0
0.015686 0.023529 0.035294
0.035716 0.028334 0.040611
0.055568 0.032961 0.045751
0.075252 0.037421 0.050724
0.096010 0.043159 0.057077
0.116620 0.048749 0.063282
0.137092 0.054202 0.069350
0.158007 0.060147 0.075969
0.184784 0.072574 0.089662
0.027934 0.055513 0.052771
0.048637 0.061196 0.059069
0.069196 0.066735 0.065223
0.089621 0.072140 0.071243
0.114001 0.081955 0.082070
0.138748 0.092080 0.093280
0.165380 0.104362 0.106829
0.191919 0.116550 0.120284
0.220363 0.130916 0.136097
0.042132 0.090062 0.073120
0.067990 0.101487 0.085714
0.094688 0.113834 0.099327
0.121285 0.126081 0.112841
0.147792 0.138237 0.126263
0.174218 0.150313 0.139606
0.202563 0.164580 0.155320
0.245178 0.193019 0.184869
0.285584 0.220481 0.216753
0.077178 0.147788 0.118840
0.103654 0.159914 0.132233
0.130053 0.171963 0.145548
0.161510 0.189320 0.164279
0.203261 0.216812 0.193129
0.247297 0.248743 0.230970
0.291370 0.280637 0.268603
0.335554 0.312503 0.305886
0.379920 0.344353 0.342689
0.124032 0.217610 0.176704
0.164974 0.245084 0.207378
0.209016 0.277000 0.245158
0.253123 0.308883 0.282676
0.297367 0.340742 0.319794
0.341817 0.372588 0.356387
0.386534 0.404430 0.392345
0.431571 0.436279 0.427579
0.475469 0.464991 0.457595
0.214895 0.337127 0.296693
0.259209 0.368980 0.333628
0.303752 0.400823 0.369995
0.344488 0.428181 0.400763
0.389716 0.460085 0.435820
0.439313 0.494009 0.470575
0.489311 0.527963 0.504497
0.539725 0.561956 0.537580
0.585731 0.591258 0.565372
0.306569 0.456418 0.414040
0.353470 0.489098 0.448993
0.403214 0.523031 0.483438
0.453366 0.556998 0.517044
0.503938 0.591009 0.549815
0.550084 0.620331 0.577351
0.601442 0.654458 0.608678
0.648269 0.683917 0.635078
0.695395 0.713459 0.661060
0.417481 0.586039 0.529473
0.463392 0.615326 0.557439
0.514494 0.649412 0.589224
0.561103 0.678824 0.615975
0.612953 0.713053 0.646496
0.660194 0.742629 0.672318
0.707827 0.770122 0.694452
0.750728 0.792545 0.711622
0.798840 0.819390 0.732145
0.525700 0.707941 0.627530
0.572744 0.737459 0.653624
0.620071 0.767069 0.679361
0.667834 0.793728 0.700079
0.715823 0.820498 0.720637
0.758977 0.843083 0.737756
0.802156 0.865798 0.755252
0.844029 0.888653 0.776262
0.886053 0.911659 0.797422
0.017362 0.025615 0.053835
0.036100 0.028923 0.057553
0.055894 0.033492 0.062635
0.076754 0.039333 0.069091
0.097460 0.045019 0.075392
0.118022 0.050562 0.081550
0.138451 0.055970 0.087573
0.160844 0.063527 0.095961
0.187583 0.075916 0.109616
0.029417 0.057406 0.071119
0.050069 0.063039 0.077367
0.070582 0.068531 0.083474
0.090963 0.073893 0.089451
0.116824 0.085321 0.102048
0.143524 0.097671 0.115664
0.170124 0.109920 0.129179
0.196632 0.122078 0.142604
0.223060 0.134156 0.155949
0.046020 0.094682 0.094434
0.070799 0.104839 0.105677
0.097462 0.117151 0.119256
0.124027 0.129366 0.132737
0.152495 0.143755 0.148574
0.178896 0.155806 0.161891
0.210355 0.173165 0.180624
0.252107 0.200658 0.209475
0.296144 0.232590 0.247317
0.079909 0.151062 0.138726
0.106358 0.163161 0.152091
0.134723 0.177447 0.167826
0.168648 0.196970 0.188435
0.213821 0.228931 0.223724
0.257864 0.260848 0.261506
0.301971 0.292731 0.299024
0.346216 0.324591 0.336143
0.386622 0.351951 0.367689
0.131163 0.225254 0.200854
0.175534 0.257198 0.237957
0.219592 0.289101 0.275657
0.263743 0.320975 0.313042
0.304033 0.348343 0.344884
0.348544 0.380186 0.381327
0.393337 0.412029 0.417112
0.438564 0.443934 0.452168
0.488161 0.477857 0.486923
0.221532 0.344730 0.321863
0.265896 0.376579 0.358666
0.310506 0.408421 0.394873
0.355418 0.440267 0.430388
0.402318 0.472946 0.465341
0.452062 0.506879 0.499786
0.502213 0.540845 0.533390
0.547983 0.570112 0.561621
0.598928 0.604175 0.593695
0.317548 0.468506 0.443556
0.366125 0.501961 0.478399
0.416020 0.535905 0.512530
0.461555 0.565144 0.541212
0.512237 0.599171 0.573783
0.563337 0.633256 0.605568
0.609945 0.662665 0.632316
0.656864 0.692151 0.658593
0.709031 0.726466 0.688656
0.425710 0.594191 0.553564
0.476549 0.628238 0.585834
0.522931 0.657604 0.612965
0.574541 0.691782 0.643871
0.621583 0.721298 0.669963
0.668907 0.750905 0.695697
0.716668 0.777562 0.716413
0.759633 0.800023 0.733562
0.807805 0.826911 0.754084
0.534269 0.716167 0.651078
0.586349 0.750457 0.681263
0.633858 0.778792 0.704828
0.676697 0.801182 0.722032
0.724752 0.827992 0.742570
0.767961 0.850620 0.759704
0.810662 0.873381 0.778470
0.852585 0.896286 0.799530
0.889895 0.915039 0.816745
0.017786 0.026244 0.070816
0.037694 0.030927 0.076012
0.057431 0.035440 0.081037
0.078238 0.041227 0.087440
0.098894 0.046863 0.093691
0.119410 0.052359 0.099802
0.139794 0.057724 0.105782
0.165658 0.069155 0.118381
0.192361 0.081507 0.132000
0.030882 0.059281 0.089449
0.051486 0.064865 0.095648
0.071953 0.070312 0.101710
0.092862 0.076252 0.108324
0.119634 0.088674 0.122012
0.146299 0.100988 0.135593
0.172866 0.113205 0.149077
0.199347 0.125335 0.162473
0.227740 0.139649 0.178235
0.048855 0.098059 0.114423
0.075586 0.110440 0.128071
0.102215 0.122718 0.141616
0.128749 0.134902 0.155067
0.155200 0.147003 0.168434
0.183567 0.161291 0.184169
0.217493 0.180816 0.204781
0.262667 0.212777 0.240071
0.306711 0.244695 0.277853
0.082631 0.154327 0.158603
0.111044 0.168661 0.174384
0.137396 0.180663 0.187653
0.180009 0.209100 0.217199
0.224381 0.241045 0.254304
0.264461 0.268464 0.286807
0.308594 0.300338 0.324236
0.352882 0.332192 0.361233
0.397393 0.364035 0.397676
0.142056 0.237378 0.230687
0.182125 0.264821 0.263298
0.226197 0.296713 0.300929
0.270380 0.328579 0.338212
0.314745 0.360428 0.375014
0.359355 0.392270 0.411222
0.404267 0.424115 0.446737
0.451166 0.456794 0.481690
0.500909 0.490726 0.516133
0.232192 0.356818 0.352120
0.276642 0.388663 0.388712
0.321359 0.420505 0.424670
0.366396 0.452354 0.459904
0.414973 0.485809 0.494747
0.464867 0.519752 0.528877
0.510401 0.548990 0.557558
0.561082 0.583016 0.590128
0.612181 0.617099 0.621911
0.329192 0.480903 0.473038
0.378836 0.514828 0.507688
0.424140 0.544041 0.536826
0.474556 0.578037 0.569910
0.525394 0.612082 0.602178
0.571773 0.641447 0.629308
0.623382 0.675623 0.660212
0.670422 0.705137 0.686302
0.717744 0.734742 0.712034
0.438770 0.607090 0.582147
0.484918 0.636415 0.609685
0.536279 0.670545 0.641015
0.583110 0.700007 0.667419
0.630240 0.729554 0.693404
0.677697 0.758322 0.717700
0.725530 0.785015 0.738365
0.773582 0.811822 0.758900
0.816788 0.834447 0.776031
0.547794 0.729145 0.678837
0.595040 0.758724 0.704664
0.642677 0.786222 0.726802
0.690601 0.812955 0.747391
0.733700 0.835500 0.764505
0.776962 0.858172 0.781664
0.819185 0.880981 0.801705
0.861159 0.903938 0.822816
0.898523 0.922745 0.840085
0.019419 0.028288 0.089315
0.039268 0.032912 0.094452
0.058950 0.037369 0.099421
0.079704 0.043103 0.105771
0.100312 0.048691 0.111974
0.120782 0.054141 0.118039
0.141694 0.060084 0.124656
0.168469 0.072508 0.138347
0.195136 0.084825 0.151930
0.032330 0.061140 0.107762
0.052887 0.066676 0.113914
0.073309 0.072079 0.119932
0.097688 0.081892 0.130756
0.122432 0.092014 0.141965
0.149063 0.104295 0.155511
0.177589 0.118743 0.171407
0.204042 0.130845 0.184776
0.230421 0.142874 0.198071
0.051676 0.101423 0.134399
0.078371 0.113768 0.148011
0.104967 0.126013 0.161522
0.131472 0.138167 0.174944
0.159886 0.152503 0.190727
0.186241 0.164508 0.203997
0.228854 0.192946 0.233545
0.269259 0.220406 0.265429
0.313309 0.252311 0.303155
0.087333 0.159843 0.180912
0.113731 0.171891 0.194226
0.145187 0.189247 0.212956
0.190902 0.221224 0.247034
0.230973 0.248668 0.279645
0.275045 0.280561 0.317277
0.319229 0.312427 0.354560
0.363594 0.344277 0.391363
0.408204 0.376119 0.427571
0.148650 0.245010 0.256054
0.192691 0.276925 0.293833
0.236797 0.308808 0.331350
0.281041 0.340666 0.368468
0.325491 0.372512 0.405061
0.370208 0.404354 0.441019
0.415245 0.436203 0.476253
0.463821 0.469657 0.511095
0.508989 0.498858 0.540507
0.242883 0.368904 0.382302
0.287426 0.400747 0.418669
0.332257 0.432590 0.454364
0.378040 0.464751 0.489386
0.422988 0.493934 0.519250
0.472987 0.527888 0.553173
0.523402 0.561882 0.586256
0.574238 0.595927 0.618523
0.620616 0.625289 0.645651
0.337144 0.489022 0.497668
0.386889 0.522956 0.532113
0.437042 0.556924 0.565720
0.487615 0.590935 0.598492
0.533762 0.620259 0.626029
0.585121 0.654387 0.657357
0.631950 0.683848 0.683759
0.679078 0.713392 0.709742
0.726532 0.742158 0.734035
0.447069 0.615254 0.606116
0.498172 0.649341 0.637903
0.544783 0.678753 0.664654
0.596634 0.712985 0.695177
0.643877 0.742561 0.721001
0.691512 0.770057 0.743137
0.734415 0.792481 0.760309
0.782529 0.819329 0.780834
0.825788 0.841998 0.797989
0.556426 0.737391 0.702306
0.603754 0.767002 0.728044
0.651519 0.793664 0.748765
0.699511 0.820436 0.769324
0.742667 0.843023 0.786446
0.785849 0.865740 0.803944
0.827725 0.888598 0.824957
0.869751 0.911607 0.846120
0.907171 0.930470 0.863445
0.019802 0.028875 0.106255
0.040823 0.034877 0.112872
0.060450 0.039279 0.117787
0.081154 0.044963 0.124086
0.101713 0.050503 0.130241
0.122139 0.055909 0.136262
0.146521 0.065725 0.147089
0.171267 0.075850 0.158300
0.197901 0.088133 0.171849
0.033762 0.062981 0.126059
0.054272 0.068471 0.132164
0.074651 0.073831 0.138139
0.100510 0.085256 0.150733
0.127208 0.097604 0.164347
0.153805 0.109852 0.177861
0.180312 0.122008 0.191284
0.206739 0.134085 0.204627
0.235085 0.148352 0.220342
0.054484 0.104774 0.154362
0.081145 0.117084 0.167939
0.107708 0.129297 0.181418
0.136175 0.143685 0.197254
0.162575 0.155734 0.210570
0.194032 0.173092 0.229301
0.235783 0.200584 0.258151
0.279820 0.232515 0.295993
0.323893 0.264409 0.333625
0.090037 0.163090 0.200770
0.118401 0.177375 0.216503
0.152324 0.196897 0.237112
0.197497 0.228857 0.272400
0.241539 0.260773 0.310181
0.285645 0.292656 0.347699
0.329890 0.324515 0.384817
0.374340 0.356361 0.421410
0.419057 0.388203 0.457367
0.159209 0.257123 0.286633
0.203267 0.289026 0.324332
0.247417 0.320899 0.361716
0.291731 0.352752 0.398651
0.336275 0.384596 0.435018
0.377011 0.411953 0.465786
0.422239 0.443858 0.500843
0.471836 0.477781 0.535598
0.521833 0.511735 0.569519
0.249570 0.376503 0.407340
0.294180 0.408345 0.443547
0.339092 0.440191 0.479062
0.385992 0.472870 0.514016
0.435737 0.506804 0.548461
0.485889 0.540770 0.582066
0.536460 0.574781 0.614837
0.582606 0.604103 0.642373
0.633963 0.638230 0.673700
0.349800 0.501886 0.527074
0.399695 0.535830 0.561205
0.450003 0.569812 0.594495
0.495914 0.599098 0.622460
0.547015 0.633184 0.654246
0.593624 0.662595 0.680996
0.645473 0.696824 0.711516
0.692714 0.726399 0.737338
0.740347 0.753891 0.759472
0.460227 0.628165 0.634511
0.511482 0.662274 0.666017
0.558221 0.691712 0.692551
0.605265 0.721230 0.718645
0.652591 0.750839 0.744381
0.700353 0.777498 0.765099
0.748342 0.804267 0.785656
0.791495 0.826851 0.802774
0.834673 0.849565 0.820269
0.570032 0.750390 0.729945
0.617542 0.778727 0.753512
0.660384 0.801119 0.770718
0.708441 0.827931 0.791258
0.751652 0.850561 0.808395
0.794356 0.873325 0.827164
0.836282 0.896233 0.848226
0.873594 0.914989 0.865444
0.915838 0.938214 0.886824
0.021395 0.030879 0.124713
0.041129 0.035388 0.129735
0.061933 0.041172 0.136135
0.082587 0.046806 0.142384
0.103100 0.052299 0.148492
0.123482 0.057662 0.154470
0.149344 0.069090 0.167067
0.176044 0.081441 0.180684
0.202644 0.093690 0.194200
0.035178 0.064807 0.144340
0.055642 0.070252 0.150400
0.078539 0.078451 0.159453
0.103319 0.088609 0.170697
0.129982 0.100921 0.184276
0.156548 0.113137 0.197758
0.185016 0.127527 0.213595
0.211418 0.139578 0.226913
0.242877 0.156937 0.245646
0.059271 0.110374 0.176755
0.085897 0.122650 0.190298
0.112430 0.134833 0.203747
0.138879 0.146932 0.217113
0.167245 0.161219 0.232847
0.201170 0.180742 0.253457
0.246343 0.212703 0.288747
0.290386 0.244620 0.326528
0.334493 0.276504 0.364047
0.094722 0.168589 0.223063
0.121074 0.180591 0.236330
0.163685 0.209026 0.265876
0.208056 0.240970 0.302980
0.252115 0.272874 0.340680
0.292268 0.300262 0.372911
0.336556 0.332116 0.409907
0.381067 0.363959 0.446350
0.425860 0.395802 0.482135
0.169772 0.269232 0.317189
0.209872 0.296638 0.349604
0.254054 0.328503 0.386886
0.298419 0.360352 0.423688
0.343029 0.392194 0.459896
0.387941 0.424039 0.495411
0.434841 0.456718 0.530364
0.484584 0.490651 0.564808
0.534735 0.524617 0.598413
0.260316 0.388587 0.437386
0.305033 0.420429 0.473344
0.350070 0.452278 0.508579
0.398648 0.485734 0.543422
0.448542 0.519677 0.577552
0.494077 0.548916 0.606234
0.544759 0.582943 0.638805
0.595859 0.617027 0.670589
0.642466 0.646436 0.697338
0.362511 0.514753 0.556363
0.412558 0.548708 0.590177
0.458232 0.577963 0.618586
0.509071 0.612010 0.650856
0.555452 0.641375 0.677986
0.607062 0.675553 0.708892
0.654104 0.705069 0.734984
0.701427 0.734675 0.760717
0.749187 0.761332 0.781432
0.473441 0.641084 0.662798
0.519958 0.670474 0.689694
0.566790 0.699938 0.716099
0.618870 0.734228 0.746283
0.666377 0.762562 0.769847
0.709217 0.784951 0.787051
0.757271 0.811761 0.807588
0.800479 0.834388 0.824722
0.843179 0.857148 0.843487
0.578722 0.758657 0.753347
0.626362 0.786157 0.775487
0.674288 0.812892 0.796078
0.717390 0.835440 0.813194
0.760654 0.858114 0.830355
0.802879 0.880926 0.850400
0.844857 0.903885 0.871513
0.882224 0.922695 0.888786
0.919758 0.941673 0.906225
0.022968 0.032862 0.143152
0.042647 0.037316 0.148118
0.063399 0.043048 0.154466
0.084003 0.048633 0.160666
0.104471 0.054081 0.166729
0.125381 0.060021 0.173343
0.152154 0.072443 0.187032
0.178819 0.084758 0.200613
0.205387 0.096976 0.214098
0.036577 0.066617 0.162605
0.056997 0.072017 0.168620
0.081374 0.081828 0.179443
0.108106 0.094210 0.193091
0.134735 0.106488 0.206636
0.161270 0.118673 0.220087
0.187721 0.130774 0.233455
0.216089 0.145063 0.249191
0.250015 0.164588 0.269803
0.062055 0.113701 0.196694
0.088648 0.125944 0.210204
0.115152 0.138098 0.223624
0.143565 0.152432 0.239406
0.169918 0.164435 0.252675
0.212531 0.192872 0.282222
0.256903 0.224817 0.319327
0.296984 0.252236 0.351830
0.341116 0.284111 0.389259
0.097409 0.171819 0.242904
0.128864 0.189174 0.261633
0.174578 0.221150 0.295710
0.214648 0.248593 0.328321
0.258720 0.280486 0.365952
0.302903 0.312352 0.403234
0.347268 0.344201 0.440037
0.391878 0.376043 0.476245
0.436789 0.407888 0.511760
0.176366 0.276850 0.342508
0.220472 0.308732 0.380025
0.264715 0.340591 0.417142
0.309165 0.372436 0.453735
0.353882 0.404278 0.489693
0.398919 0.436127 0.524927
0.447496 0.469582 0.559770
0.497389 0.503525 0.593899
0.542923 0.532762 0.622580
0.271100 0.400671 0.467343
0.315931 0.432514 0.503039
0.361715 0.464676 0.538060
0.411359 0.498600 0.572711
0.456662 0.527814 0.601848
0.507078 0.561809 0.634932
0.557915 0.595854 0.667200
0.604295 0.625218 0.694329
0.655903 0.659394 0.725233
0.370564 0.522881 0.580788
0.420718 0.556850 0.614395
0.471292 0.590862 0.647169
0.517439 0.620186 0.674707
0.568800 0.654316 0.706036
0.615631 0.683778 0.732439
0.662760 0.713324 0.758424
0.710216 0.742092 0.782720
0.758050 0.768784 0.803384
0.481850 0.649269 0.686581
0.533359 0.683424 0.717649
0.580315 0.712916 0.743858
0.627560 0.742494 0.769684
0.675197 0.769991 0.791822
0.723120 0.796724 0.812410
0.766219 0.819268 0.829523
0.809480 0.841940 0.846681
0.851702 0.864748 0.866722
0.587438 0.766936 0.776728
0.635205 0.793599 0.797450
0.683198 0.820374 0.818012
0.726357 0.842963 0.835136
0.769541 0.865683 0.852637
0.811420 0.888544 0.873652
0.853450 0.911555 0.894818
0.890872 0.930421 0.912146
0.928466 0.949458 0.929645
0.024522 0.034826 0.161571
0.044147 0.039226 0.166483
0.064847 0.044907 0.172779
0.085404 0.050444 0.178932
0.105827 0.055847 0.184950
0.130207 0.065661 0.195775
0.154952 0.075784 0.206984
0.181583 0.088065 0.220532
0.210110 0.102513 0.236428
0.037962 0.068411 0.180854
0.059569 0.075204 0.188365
0.084195 0.085192 0.199418
0.110891 0.097538 0.213031
0.137487 0.109783 0.226543
0.163993 0.121938 0.239965
0.192408 0.136275 0.255748
0.218763 0.148279 0.269019
0.261376 0.176718 0.298567
0.064827 0.117017 0.216622
0.093379 0.131490 0.232542
0.119854 0.143614 0.245933
0.146253 0.155663 0.259248
0.177709 0.173019 0.277978
0.223425 0.204996 0.312056
0.263495 0.232441 0.344668
0.307568 0.264334 0.382300
0.351751 0.296200 0.419583
0.102079 0.177303 0.265181
0.140230 0.201309 0.290402
0.181172 0.228782 0.321076
0.225214 0.260698 0.358856
0.269320 0.292580 0.396373
0.313564 0.324439 0.433491
0.358014 0.356285 0.470084
0.402731 0.388127 0.506041
0.447767 0.419975 0.541276
0.186942 0.288951 0.373007
0.231092 0.320824 0.410390
0.275405 0.352676 0.447325
0.319949 0.384520 0.483692
0.364780 0.416363 0.519387
0.405913 0.443782 0.549517
0.455511 0.477706 0.584273
0.505509 0.511660 0.618195
0.555924 0.545655 0.651278
0.281924 0.412755 0.497205
0.322766 0.440115 0.527736
0.369667 0.472795 0.562690
0.419412 0.506729 0.597136
0.469565 0.540696 0.630742
0.520137 0.574707 0.663514
0.566283 0.604030 0.691051
0.617642 0.638159 0.722379
0.664471 0.667619 0.748780
0.383370 0.535755 0.609880
0.433679 0.569738 0.643171
0.479591 0.599025 0.671137
0.530694 0.633112 0.702924
0.577304 0.662524 0.729675
0.629155 0.696755 0.760198
0.676397 0.726332 0.786021
0.724031 0.753826 0.808156
0.766934 0.776250 0.825328
0.495160 0.662203 0.714695
0.541901 0.691642 0.741231
0.588946 0.721162 0.767326
0.636274 0.750772 0.793064
0.684039 0.777433 0.813784
0.732029 0.804205 0.834343
0.775185 0.826791 0.851464
0.818366 0.849508 0.868962
0.860241 0.872365 0.889973
0.601226 0.778661 0.802196
0.649084 0.805361 0.822827
0.692129 0.827869 0.839947
0.735343 0.850502 0.857086
0.778049 0.873268 0.875857
0.819978 0.896179 0.896923
0.862061 0.919244 0.918142
0.899541 0.938167 0.935527
0.932427 0.952957 0.949087
0.024827 0.035336 0.178434
0.045628 0.041118 0.184830
0.066279 0.046749 0.191076
0.086790 0.052239 0.197182
0.107170 0.057600 0.203158
0.133029 0.069026 0.215752
0.159728 0.081374 0.229367
0.186326 0.093622 0.242882
0.212833 0.105779 0.256305
0.039331 0.070191 0.199089
0.062226 0.078387 0.208140
0.087004 0.088543 0.219382
0.113665 0.100854 0.232959
0.140229 0.113068 0.246439
0.168696 0.127456 0.262275
0.195096 0.139506 0.275591
0.226554 0.156864 0.294323
0.268305 0.184357 0.323174
0.069579 0.122582 0.238980
0.096110 0.134763 0.252428
0.122558 0.146861 0.265792
0.150923 0.161147 0.281525
0.184846 0.180669 0.302134
0.230019 0.212629 0.337423
0.274061 0.244545 0.375203
0.318168 0.276428 0.412721
0.362412 0.308288 0.449840
0.106741 0.182779 0.287450
0.147361 0.208953 0.314552
0.191732 0.240896 0.351655
0.235790 0.272799 0.389354
0.279940 0.304672 0.426739
0.324254 0.336525 0.463674
0.364741 0.363883 0.495024
0.409534 0.395726 0.530809
0.454761 0.427631 0.565865
0.197531 0.301048 0.403462
0.237729 0.328427 0.435560
0.282093 0.360276 0.472362
0.326703 0.392118 0.508570
0.371615 0.423964 0.544085
0.418515 0.456643 0.579039
0.468259 0.490576 0.613483
0.518411 0.524543 0.647088
0.564181 0.553811 0.675320
0.288707 0.420353 0.522018
0.333745 0.452203 0.557253
0.382323 0.485658 0.592097
0.432217 0.519603 0.626227
0.482525 0.553584 0.659517
0.528436 0.582870 0.687482
0.579537 0.616955 0.719267
0.626145 0.646366 0.746017
0.673066 0.675853 0.772295
0.396233 0.548634 0.638853
0.441909 0.577889 0.667263
0.492748 0.611937 0.699533
0.544003 0.646046 0.731038
0.590742 0.675483 0.757572
0.637785 0.705000 0.783665
0.685111 0.734609 0.809401
0.732872 0.761267 0.830118
0.780860 0.788036 0.850674
0.503637 0.670403 0.738373
0.555391 0.704610 0.769042
0.602552 0.734160 0.794965
0.650062 0.762496 0.818531
0.692903 0.784888 0.835737
0.740959 0.811699 0.856276
0.784170 0.834328 0.873413
0.826873 0.857092 0.892181
0.868798 0.879999 0.913242
0.610047 0.786092 0.824172
0.657975 0.812829 0.844765
0.701079 0.835379 0.861884
0.744346 0.858056 0.879047
0.786574 0.880870 0.899094
0.828554 0.903832 0.920211
0.865924 0.922646 0.937486
0.903462 0.941626 0.954929
0.941176 0.960784 0.972549
