tools/kachinova-light.cube
# KACHINOVA film grade - generated by tools/films.py
# Mirrors grade() in tools/media.py (minus per-frame grain).
LUT_3D_SIZE 33
DOMAIN_MIN 0.0 0.0 0.0
DOMAIN_MAX 1.0 1.0 1.0
0.090196 0.113725 0.152941
0.098906 0.118490 0.157720
0.112985 0.128741 0.168000
0.121684 0.133494 0.172768
0.135752 0.143735 0.183038
0.144440 0.148477 0.187796
0.158499 0.158708 0.198055
0.167177 0.163440 0.202802
0.181225 0.173660 0.213052
0.189893 0.178383 0.217789
0.203931 0.188593 0.228029
0.212590 0.193306 0.232756
0.226619 0.203507 0.242986
0.235268 0.208211 0.247705
0.249287 0.218402 0.257926
0.257927 0.223097 0.262635
0.271938 0.233280 0.272847
0.285945 0.243458 0.283055
0.294572 0.248140 0.287751
0.308570 0.258310 0.297950
0.317189 0.262983 0.302638
0.331179 0.273145 0.312829
0.345164 0.283303 0.323016
0.353771 0.287964 0.327693
0.366998 0.297077 0.336444
0.379816 0.305628 0.344422
0.387833 0.309480 0.347989
0.400644 0.318023 0.355960
0.413452 0.326563 0.363928
0.421459 0.330405 0.367484
0.434259 0.338938 0.375445
0.447056 0.347468 0.383402
0.455053 0.351299 0.386948
0.114601 0.142779 0.178005
0.123292 0.147525 0.182766
0.137354 0.157758 0.193029
0.146035 0.162494 0.197779
0.160086 0.172717 0.208032
0.168758 0.177443 0.212772
0.182799 0.187656 0.223015
0.191461 0.192373 0.227745
0.205492 0.202576 0.237978
0.214144 0.207283 0.242700
0.228167 0.217477 0.252924
0.236810 0.222175 0.257636
0.250824 0.232361 0.267851
0.264833 0.242542 0.278061
0.273463 0.247226 0.282760
0.287463 0.257399 0.292962
0.296085 0.262075 0.297653
0.310077 0.272239 0.307846
0.324066 0.282399 0.318036
0.332675 0.287063 0.322714
0.346482 0.296976 0.332567
0.359303 0.305529 0.340548
0.367322 0.309384 0.344116
0.380136 0.317930 0.352090
0.388148 0.321777 0.355651
0.400954 0.330316 0.363618
0.413757 0.338851 0.371581
0.426556 0.347382 0.379541
0.434555 0.351216 0.383089
0.447348 0.359742 0.391042
0.460137 0.368264 0.398992
0.468127 0.372088 0.402531
0.480911 0.380604 0.410475
0.138946 0.171772 0.203009
0.147620 0.176501 0.207753
0.161665 0.186718 0.217999
0.170330 0.191437 0.222733
0.184364 0.201644 0.232969
0.193019 0.206353 0.237693
0.207045 0.216551 0.247920
0.215691 0.221251 0.252635
0.229707 0.231439 0.262852
0.243719 0.241623 0.273066
0.252352 0.246310 0.277767
0.266355 0.256486 0.287972
0.274979 0.261164 0.292665
0.288974 0.271331 0.302861
0.302965 0.281494 0.313053
0.311577 0.286161 0.317735
0.325560 0.296315 0.327919
0.333991 0.300735 0.332263
0.346810 0.309286 0.340242
0.359625 0.317834 0.348218
0.367640 0.321684 0.351782
0.380448 0.330225 0.359751
0.393253 0.338762 0.367716
0.401258 0.342601 0.371269
0.414056 0.351132 0.379228
0.426850 0.359659 0.387183
0.439642 0.368183 0.395135
0.447634 0.372010 0.398676
0.460419 0.380528 0.406622
0.473202 0.389043 0.414565
0.481184 0.392860 0.418096
0.493961 0.401369 0.426033
0.506735 0.409876 0.433968
0.163235 0.200709 0.227957
0.171893 0.205422 0.232684
0.185921 0.215622 0.242914
0.199945 0.225818 0.253139
0.208589 0.230517 0.257852
0.222604 0.240703 0.268068
0.231239 0.245393 0.272773
0.245245 0.255571 0.282980
0.253872 0.260252 0.287676
0.267870 0.270422 0.297875
0.281863 0.280587 0.308070
0.290477 0.285256 0.312753
0.304463 0.295414 0.322940
0.313070 0.300075 0.327616
0.326296 0.309187 0.336367
0.339114 0.317738 0.344345
0.347131 0.321590 0.347911
0.359941 0.330133 0.355882
0.372748 0.338672 0.363850
0.380755 0.342514 0.367405
0.393555 0.351046 0.375366
0.406352 0.359576 0.383323
0.414348 0.363407 0.386869
0.427139 0.371930 0.394820
0.439926 0.380450 0.402767
0.452711 0.388967 0.410712
0.460695 0.392786 0.414246
0.473474 0.401297 0.422185
0.486249 0.409806 0.430121
0.494225 0.413616 0.433646
0.506996 0.422119 0.441577
0.519764 0.430620 0.449505
0.532529 0.439117 0.457431
0.187469 0.229592 0.252850
0.201487 0.239781 0.263069
0.210125 0.244474 0.267777
0.224134 0.254655 0.277987
0.232763 0.259339 0.282685
0.246763 0.269511 0.292887
0.260759 0.279679 0.303084
0.269376 0.284351 0.307770
0.283364 0.294511 0.317960
0.291973 0.299174 0.322638
0.305780 0.309087 0.332490
0.318600 0.317640 0.340470
0.326620 0.321494 0.344039
0.339433 0.330039 0.352012
0.352242 0.338581 0.359982
0.360251 0.342425 0.363539
0.373053 0.350959 0.371502
0.385852 0.359491 0.379462
0.393851 0.363324 0.383009
0.406643 0.371849 0.390962
0.419432 0.380371 0.398912
0.427422 0.384195 0.402450
0.440205 0.392711 0.410394
0.452985 0.401224 0.418335
0.465763 0.409734 0.426273
0.473741 0.413547 0.429800
0.486513 0.422051 0.437732
0.499282 0.430553 0.445662
0.512049 0.439053 0.453590
0.520017 0.442855 0.457106
0.532779 0.451349 0.465028
0.545538 0.459842 0.472949
0.558296 0.468331 0.480867
0.211652 0.258424 0.277693
0.225655 0.268598 0.287897
0.239654 0.278769 0.298097
0.248274 0.283443 0.302786
0.262264 0.293606 0.312978
0.270876 0.298272 0.317658
0.284858 0.308426 0.327842
0.298086 0.317540 0.336594
0.306107 0.321397 0.340165
0.318923 0.329944 0.348140
0.331734 0.338488 0.356112
0.339745 0.342334 0.359672
0.352550 0.350871 0.367637
0.365351 0.359405 0.375599
0.373351 0.363240 0.379149
0.386146 0.371767 0.387104
0.398937 0.380291 0.395055
0.406928 0.384117 0.398596
0.419714 0.392635 0.406541
0.432496 0.401149 0.414484
0.445275 0.409661 0.422424
0.453255 0.413476 0.425952
0.466028 0.421982 0.433887
0.478800 0.430486 0.441818
0.486771 0.434292 0.445339
0.499537 0.442790 0.453265
0.512301 0.451287 0.461189
0.525062 0.459780 0.469111
0.533024 0.463577 0.472622
0.545780 0.472066 0.480539
0.558535 0.480553 0.488454
0.571287 0.489038 0.496367
0.584038 0.497521 0.504278
0.241162 0.292699 0.307994
0.249776 0.297368 0.312677
0.263762 0.307525 0.322863
0.277569 0.317439 0.332716
0.285594 0.321298 0.336290
0.298411 0.329848 0.344267
0.311225 0.338394 0.352242
0.319238 0.342242 0.355804
0.332045 0.350781 0.363771
0.344848 0.359317 0.371735
0.352851 0.363155 0.375287
0.365647 0.371684 0.383244
0.378441 0.380210 0.391197
0.386434 0.384038 0.394740
0.399221 0.392557 0.402687
0.412005 0.401074 0.410632
0.419989 0.404893 0.414165
0.432768 0.413404 0.422104
0.445543 0.421912 0.430040
0.458316 0.430417 0.437973
0.466289 0.434225 0.441495
0.479057 0.442725 0.449423
0.491822 0.451223 0.457349
0.504585 0.459718 0.465272
0.512548 0.463516 0.468784
0.525306 0.472007 0.476703
0.538062 0.480495 0.484619
0.550816 0.488981 0.492533
0.558770 0.492771 0.496037
0.571520 0.501253 0.503947
0.584268 0.509733 0.511855
0.597014 0.518212 0.519762
0.607305 0.523964 0.524686
0.265078 0.321197 0.332413
0.277898 0.329750 0.340393
0.285917 0.333604 0.343961
0.298730 0.342149 0.351934
0.311539 0.350690 0.359903
0.319547 0.354533 0.363461
0.332349 0.363068 0.371423
0.345148 0.371599 0.379382
0.357943 0.380127 0.387338
0.365938 0.383957 0.390882
0.378727 0.392479 0.398832
0.391513 0.400997 0.406778
0.399499 0.404818 0.410313
0.412279 0.413331 0.418254
0.425057 0.421840 0.426192
0.437831 0.430347 0.434127
0.445806 0.434157 0.437651
0.458575 0.442659 0.445580
0.471342 0.451158 0.453507
0.479309 0.454960 0.457024
0.492071 0.463454 0.464946
0.504830 0.471946 0.472866
0.517588 0.480436 0.480784
0.530343 0.488924 0.488699
0.538299 0.492714 0.492204
0.551050 0.501198 0.500116
0.563799 0.509679 0.508025
0.576546 0.518159 0.515933
0.584494 0.521942 0.519430
0.594785 0.527694 0.524353
0.604875 0.533224 0.529034
0.614964 0.538752 0.533712
0.625051 0.544279 0.538389
0.291031 0.350598 0.356034
0.299042 0.354443 0.359594
0.311846 0.362980 0.367559
0.324647 0.371513 0.375520
0.332647 0.375348 0.379069
0.345441 0.383875 0.387024
0.358232 0.392399 0.394975
0.371020 0.400919 0.402924
0.379008 0.404742 0.406461
0.391790 0.413256 0.414403
0.404569 0.421768 0.422343
0.412548 0.425582 0.425871
0.425322 0.434088 0.433805
0.438093 0.442591 0.441736
0.450861 0.451092 0.449665
0.458830 0.454896 0.453183
0.471593 0.463392 0.461107
0.484354 0.471885 0.469028
0.497113 0.480376 0.476947
0.505072 0.484171 0.480456
0.517827 0.492657 0.488370
0.530579 0.501142 0.496283
0.543329 0.509625 0.504194
0.556077 0.518105 0.512103
0.564027 0.521890 0.515601
0.575645 0.529115 0.522137
0.585736 0.534646 0.526818
0.595825 0.540175 0.531498
0.602442 0.542481 0.533378
0.612529 0.548007 0.538055
0.622614 0.553531 0.542730
0.632697 0.559055 0.547404
0.642780 0.564577 0.552076
0.312147 0.375263 0.375207
0.324943 0.383792 0.383164
0.337736 0.392317 0.391118
0.345729 0.396145 0.394660
0.358516 0.404664 0.402607
0.371300 0.413181 0.410551
0.384080 0.421694 0.418493
0.392061 0.425510 0.422023
0.404837 0.434018 0.429958
0.417609 0.442523 0.437891
0.430379 0.451025 0.445822
0.438350 0.454831 0.449341
0.451114 0.463328 0.457266
0.463877 0.471823 0.465189
0.476637 0.480315 0.473110
0.484598 0.484111 0.476620
0.497354 0.492599 0.484536
0.510107 0.501085 0.492450
0.522859 0.509569 0.500362
0.530811 0.513357 0.503863
0.543559 0.521837 0.511772
0.556305 0.530315 0.519678
0.566596 0.536068 0.524602
0.576686 0.541598 0.529282
0.583304 0.543904 0.531164
0.593392 0.549431 0.535841
0.603478 0.554957 0.540518
0.613562 0.560481 0.545192
0.623646 0.566004 0.549865
0.630256 0.568303 0.551740
0.640337 0.573823 0.556411
0.650417 0.579343 0.561081
0.660496 0.584861 0.565750
0.338022 0.404586 0.398752
0.350808 0.413104 0.406698
0.358794 0.416925 0.410233
0.371573 0.425437 0.418173
0.384350 0.433947 0.426111
0.397125 0.442453 0.434045
0.405099 0.446263 0.437569
0.417868 0.454764 0.445498
0.430635 0.463263 0.453425
0.443399 0.471760 0.461350
0.451363 0.475559 0.464863
0.464123 0.484051 0.472783
0.476880 0.492540 0.480701
0.489635 0.501028 0.488616
0.497590 0.504819 0.492121
0.510341 0.513302 0.500032
0.523090 0.521783 0.507941
0.535837 0.530262 0.515849
0.547455 0.537489 0.522385
0.554076 0.539798 0.524269
0.564166 0.545327 0.528949
0.574254 0.550855 0.533628
0.584341 0.556381 0.538305
0.594426 0.561906 0.542980
0.601039 0.564208 0.544857
0.611122 0.569730 0.549530
0.621204 0.575251 0.554201
0.631284 0.580771 0.558872
0.641364 0.586290 0.563541
0.647971 0.588586 0.565412
0.658048 0.594103 0.570080
0.668125 0.599619 0.574746
0.678201 0.605135 0.579412
0.363863 0.433874 0.422262
0.376639 0.442383 0.430198
0.384615 0.446194 0.433723
0.397386 0.454697 0.441655
0.410154 0.463198 0.449583
0.422920 0.471696 0.457509
0.430886 0.475497 0.461024
0.443647 0.483990 0.468945
0.456405 0.492481 0.476864
0.469161 0.500969 0.484781
0.477118 0.504761 0.488287
0.489870 0.513246 0.496200
0.502620 0.521729 0.504110
0.515369 0.530209 0.512019
0.523318 0.533993 0.515517
0.534935 0.541219 0.522053
0.545026 0.546749 0.526734
0.555116 0.552278 0.531413
0.565204 0.557806 0.536091
0.571819 0.560109 0.537970
0.581904 0.565634 0.542645
0.591987 0.571157 0.547319
0.602070 0.576679 0.551991
0.612151 0.582200 0.556662
0.618760 0.584497 0.558535
0.628839 0.590016 0.563204
0.638917 0.595533 0.567872
0.648994 0.601050 0.572539
0.659071 0.606566 0.577206
0.669146 0.612081 0.581871
0.675750 0.614373 0.583739
0.685824 0.619887 0.588403
0.695770 0.625400 0.593323
0.389672 0.463131 0.445740
0.397642 0.466936 0.449259
0.410407 0.475433 0.457184
0.423169 0.483928 0.465107
0.435929 0.492420 0.473027
0.443890 0.496216 0.476537
0.456645 0.504704 0.484453
0.469399 0.513189 0.492367
0.482150 0.521673 0.500278
0.494899 0.530155 0.508188
0.502850 0.533940 0.511688
0.515596 0.542418 0.519594
0.525887 0.548171 0.524518
0.535977 0.553701 0.529198
0.542595 0.556007 0.531079
0.552682 0.561534 0.535757
0.562768 0.567059 0.540433
0.572852 0.572583 0.545107
0.582935 0.578106 0.549780
0.593017 0.583628 0.554452
0.599627 0.585926 0.556326
0.609707 0.591445 0.560995
0.619785 0.596963 0.565664
0.629863 0.602480 0.570332
0.639940 0.607997 0.574999
0.646545 0.610290 0.576867
0.656620 0.615805 0.581533
0.666695 0.621319 0.586198
0.676743 0.626833 0.590913
0.686612 0.632346 0.595987
0.696480 0.637859 0.601060
0.702979 0.640149 0.603130
0.712847 0.645661 0.608203
0.415453 0.492359 0.469189
0.423415 0.496156 0.472700
0.436172 0.504645 0.480618
0.448926 0.513132 0.488533
0.461679 0.521617 0.496446
0.469633 0.525406 0.499948
0.482381 0.533887 0.507857
0.495128 0.542366 0.515765
0.506746 0.549592 0.522301
0.516838 0.555123 0.526982
0.523456 0.557430 0.528865
0.533544 0.562958 0.533543
0.543631 0.568484 0.538220
0.553717 0.574009 0.542895
0.563801 0.579533 0.547569
0.570412 0.581833 0.549445
0.580494 0.587354 0.554116
0.590574 0.592874 0.558787
0.600653 0.598392 0.563456
0.610732 0.603910 0.568124
0.617338 0.606205 0.569994
0.627414 0.611721 0.574661
0.637490 0.617236 0.579327
0.647565 0.622751 0.583992
0.657640 0.628265 0.588656
0.667585 0.633778 0.593576
0.674085 0.636069 0.595648
0.683953 0.641582 0.600721
0.693821 0.647094 0.605794
0.703688 0.652606 0.610866
0.713555 0.658118 0.615938
0.723422 0.663629 0.621011
0.729921 0.665919 0.623080
0.441207 0.521560 0.492612
0.449162 0.525350 0.496116
0.461912 0.533832 0.504027
0.474660 0.542313 0.511935
0.487406 0.550791 0.519842
0.494226 0.553322 0.521968
0.504317 0.558853 0.526649
0.514406 0.564381 0.531329
0.524494 0.569909 0.536006
0.534580 0.575434 0.540683
0.541194 0.577737 0.542560
0.551278 0.583260 0.547234
0.561360 0.588781 0.551906
0.571441 0.594302 0.556577
0.581521 0.599821 0.561247
0.588129 0.602118 0.563119
0.598207 0.607635 0.567787
0.608284 0.613152 0.572454
0.618360 0.618668 0.577120
0.628435 0.624183 0.581786
0.638510 0.629697 0.586451
0.645113 0.631989 0.588317
0.655059 0.637502 0.593237
0.664927 0.643015 0.598311
0.674795 0.648527 0.603384
0.684663 0.654039 0.608457
0.694530 0.659551 0.613529
0.701028 0.661841 0.615599
0.710895 0.667352 0.620671
0.720762 0.672864 0.625743
0.730630 0.678376 0.630816
0.740497 0.683887 0.635888
0.750364 0.689399 0.640961
0.462141 0.546044 0.511604
0.474886 0.554522 0.519510
0.485177 0.560274 0.524433
0.495268 0.565804 0.529114
0.505356 0.571332 0.533792
0.511972 0.573637 0.535672
0.522058 0.579162 0.540348
0.532142 0.584686 0.545022
0.542225 0.590209 0.549695
0.552307 0.595730 0.554367
0.562388 0.601250 0.559038
0.568996 0.603547 0.560910
0.579075 0.609065 0.565579
0.589153 0.614582 0.570246
0.599229 0.620099 0.574913
0.609305 0.625614 0.579579
0.615909 0.627907 0.581447
0.625984 0.633421 0.586112
0.636032 0.638934 0.590827
0.645901 0.644447 0.595901
0.655769 0.649960 0.600974
0.665637 0.655472 0.606047
0.672136 0.657762 0.608117
0.682003 0.663274 0.613190
0.691870 0.668786 0.618262
0.701737 0.674297 0.623334
0.711604 0.679809 0.628406
0.721471 0.685321 0.633479
0.727970 0.687610 0.635549
0.737837 0.693123 0.640621
0.747705 0.698635 0.645694
0.756466 0.702958 0.649500
0.764707 0.706640 0.652521
0.486218 0.572755 0.531578
0.492835 0.575061 0.533458
0.502922 0.580587 0.538135
0.513007 0.586112 0.542810
0.523091 0.591635 0.547484
0.533173 0.597157 0.552157
0.539783 0.599456 0.554031
0.549864 0.604976 0.558701
0.559943 0.610495 0.563370
0.570021 0.616012 0.568039
0.580098 0.621529 0.572706
0.586704 0.623823 0.574575
0.596779 0.629338 0.579241
0.606854 0.634853 0.583906
0.616929 0.640367 0.588570
0.626875 0.645880 0.593491
0.636743 0.651393 0.598564
0.643242 0.653683 0.600635
0.653110 0.659195 0.605708
0.662977 0.664707 0.610780
0.672844 0.670219 0.615852
0.682711 0.675731 0.620925
0.692579 0.681242 0.625997
0.699077 0.683532 0.628067
0.708944 0.689044 0.633139
0.718812 0.694556 0.638212
0.728679 0.700068 0.643285
0.738292 0.705306 0.648065
0.746456 0.708988 0.651188
0.752181 0.710364 0.652182
0.760551 0.714047 0.655032
0.768922 0.717731 0.657884
0.777293 0.721416 0.660736
0.503955 0.593061 0.545273
0.510567 0.595362 0.547149
0.520650 0.600884 0.551821
0.530731 0.606404 0.556492
0.540811 0.611924 0.561162
0.550889 0.617442 0.565831
0.557496 0.619737 0.567701
0.567573 0.625254 0.572368
0.577649 0.630769 0.577034
0.587725 0.636284 0.581700
0.597799 0.641799 0.586365
0.607848 0.647312 0.591080
0.614348 0.649603 0.593152
0.624216 0.655116 0.598225
0.634084 0.660629 0.603298
0.643952 0.666141 0.608371
0.653819 0.671653 0.613443
0.663686 0.677164 0.618515
0.670184 0.679454 0.620585
0.680051 0.684965 0.625657
0.689919 0.690477 0.630730
0.699786 0.695989 0.635802
0.709653 0.701501 0.640875
0.719521 0.707013 0.645948
0.725765 0.709029 0.647726
0.733929 0.712712 0.650849
0.742273 0.716394 0.653734
0.750644 0.720078 0.656584
0.759015 0.723762 0.659436
0.764768 0.725140 0.660397
0.773140 0.728826 0.663250
0.781514 0.732512 0.666104
0.789888 0.736199 0.668959
0.521678 0.613352 0.558953
0.528286 0.615649 0.560825
0.538364 0.621167 0.565493
0.548442 0.626684 0.570161
0.558519 0.632200 0.574828
0.568595 0.637716 0.579494
0.578670 0.643231 0.584159
0.585273 0.645523 0.586026
0.595322 0.651036 0.590741
0.605190 0.656549 0.595815
0.615058 0.662062 0.600888
0.624926 0.667574 0.605961
0.634793 0.673086 0.611034
0.641292 0.675376 0.613104
0.651159 0.680887 0.618176
0.661026 0.686399 0.623248
0.670893 0.691911 0.628320
0.680760 0.697422 0.633393
0.690628 0.702934 0.638465
0.697126 0.705224 0.640535
0.706994 0.710737 0.645609
0.715755 0.715059 0.649414
0.723996 0.718742 0.652435
0.732366 0.722425 0.655285
0.738118 0.723802 0.656246
0.746489 0.727486 0.659098
0.754861 0.731171 0.661950
0.763234 0.734857 0.664803
0.771608 0.738544 0.667658
0.779983 0.742232 0.670513
0.785739 0.743614 0.671478
0.794116 0.747304 0.674336
0.802494 0.750995 0.677194
0.539388 0.633631 0.572621
0.549464 0.639147 0.577287
0.556069 0.641440 0.579155
0.566144 0.646954 0.583820
0.576218 0.652468 0.588485
0.586164 0.657982 0.593405
0.596032 0.663495 0.598478
0.605900 0.669007 0.603551
0.612399 0.671297 0.605622
0.622266 0.676809 0.610694
0.632133 0.682321 0.615766
0.642001 0.687832 0.620839
0.651868 0.693344 0.625911
0.661735 0.698856 0.630983
0.668233 0.701145 0.633053
0.678101 0.706657 0.638126
0.687968 0.712170 0.643199
0.697581 0.717408 0.647979
0.705745 0.721090 0.651102
0.714089 0.724772 0.653987
0.719840 0.726149 0.654947
0.728211 0.729833 0.657798
0.736583 0.733517 0.660650
0.744955 0.737203 0.663503
0.753328 0.740889 0.666356
0.759083 0.742269 0.667320
0.767458 0.745958 0.670176
0.775835 0.749647 0.673033
0.784212 0.753337 0.675890
0.792590 0.757029 0.678749
0.798351 0.758415 0.679719
0.806733 0.762109 0.682581
0.815115 0.765805 0.685444
0.557089 0.653900 0.586279
0.567137 0.659414 0.590994
0.577006 0.664927 0.596068
0.583505 0.667218 0.598139
0.593373 0.672730 0.603212
0.603241 0.678242 0.608285
0.613108 0.683754 0.613357
0.622975 0.689266 0.618429
0.632842 0.694777 0.623502
0.639340 0.697067 0.625571
0.649208 0.702579 0.630644
0.659075 0.708090 0.635716
0.668942 0.713603 0.640789
0.678810 0.719115 0.645862
0.687571 0.723438 0.649667
0.693218 0.724813 0.650763
0.701563 0.728496 0.653648
0.709933 0.732180 0.656499
0.718304 0.735864 0.659350
0.726676 0.739549 0.662202
0.732430 0.740928 0.663165
0.740803 0.744614 0.666019
0.749178 0.748302 0.668874
0.757553 0.751990 0.671730
0.765930 0.755680 0.674587
0.774308 0.759371 0.677445
0.780068 0.760756 0.678414
0.788448 0.764449 0.681275
0.796830 0.768144 0.684137
0.805213 0.771840 0.687000
0.813598 0.775538 0.689866
0.819365 0.776931 0.690842
0.827753 0.780632 0.693710
0.574347 0.674163 0.600802
0.584215 0.679676 0.605875
0.594082 0.685188 0.610948
0.603949 0.690699 0.616020
0.610448 0.692989 0.618090
0.620315 0.698500 0.623162
0.630182 0.704012 0.628234
0.640049 0.709524 0.633307
0.649917 0.715036 0.638379
0.659784 0.720548 0.643452
0.666283 0.722838 0.645523
0.675044 0.727161 0.649328
0.683285 0.730844 0.652349
0.691655 0.734527 0.655200
0.700026 0.738210 0.658051
0.705778 0.739588 0.659012
0.714151 0.743273 0.661864
0.722524 0.746959 0.664718
0.730897 0.750646 0.667572
0.739272 0.754334 0.670427
0.747648 0.758023 0.673284
0.753406 0.759406 0.674251
0.761784 0.763098 0.677109
0.770164 0.766790 0.679969
0.778545 0.770484 0.682830
0.786927 0.774179 0.685693
0.792692 0.775569 0.686667
0.801077 0.779268 0.689533
0.809464 0.782968 0.692400
0.817853 0.786669 0.695269
0.826243 0.790373 0.698140
0.832017 0.791771 0.699122
0.840411 0.795479 0.701997
0.591422 0.694422 0.615681
0.601290 0.699934 0.620753
0.611157 0.705446 0.625825
0.621024 0.710957 0.630897
0.630891 0.716469 0.635970
0.637390 0.718759 0.638040
0.647257 0.724271 0.643113
0.656870 0.729509 0.647893
0.665034 0.733191 0.651016
0.673378 0.736874 0.653901
0.679129 0.738251 0.654861
0.687500 0.741935 0.657712
0.695872 0.745619 0.660564
0.704244 0.749305 0.663417
0.712618 0.752991 0.666271
0.720992 0.756678 0.669125
0.726748 0.758060 0.670091
0.735124 0.761749 0.672947
0.743502 0.765440 0.675805
0.751881 0.769131 0.678664
0.760261 0.772824 0.681525
0.766023 0.774212 0.682496
0.774406 0.777908 0.685359
0.782790 0.781605 0.688224
0.791176 0.785304 0.691090
0.799563 0.789005 0.693958
0.805334 0.790400 0.694937
0.813725 0.794104 0.697809
0.822118 0.797810 0.700682
0.830513 0.801519 0.703558
0.838910 0.805229 0.706435
0.844690 0.806634 0.707424
0.853091 0.810348 0.710306
0.608497 0.714680 0.630558
0.618364 0.720192 0.635630
0.628231 0.725704 0.640703
0.638099 0.731217 0.645776
0.646860 0.735539 0.649581
0.655101 0.739222 0.652602
0.660852 0.740598 0.653562
0.669222 0.744281 0.656413
0.677594 0.747966 0.659264
0.685965 0.751651 0.662117
0.694338 0.755336 0.664970
0.700093 0.756716 0.665933
0.708467 0.760404 0.668788
0.716843 0.764092 0.671645
0.725220 0.767782 0.674502
0.733598 0.771473 0.677360
0.741977 0.775165 0.680220
0.747738 0.776552 0.681190
0.756120 0.780247 0.684052
0.764503 0.783943 0.686916
0.772888 0.787641 0.689781
0.778656 0.789034 0.690758
0.787044 0.792735 0.693626
0.795434 0.796438 0.696497
0.803826 0.800143 0.699369
0.812220 0.803850 0.702243
0.817996 0.805252 0.703229
0.826394 0.808963 0.706107
0.834794 0.812676 0.708987
0.843196 0.816391 0.711870
0.848981 0.817801 0.712864
0.857388 0.821521 0.715751
0.865797 0.825243 0.718641
0.628686 0.737887 0.648147
0.634333 0.739263 0.649242
0.642575 0.742945 0.652263
0.650945 0.746629 0.655114
0.659315 0.750312 0.657965
0.667687 0.753997 0.660817
0.673440 0.755375 0.661779
0.681813 0.759061 0.664632
0.690187 0.762748 0.667487
0.698562 0.766436 0.670342
0.706938 0.770125 0.673199
0.715315 0.773815 0.676056
0.721075 0.775200 0.677024
0.729454 0.778893 0.679884
0.737835 0.782587 0.682746
0.746218 0.786282 0.685609
0.754601 0.789979 0.688473
0.760368 0.791371 0.689448
0.768755 0.795071 0.692316
0.777144 0.798773 0.695185
0.785534 0.802477 0.698056
0.793927 0.806182 0.700929
0.799702 0.807583 0.701913
0.808099 0.811292 0.704790
0.816497 0.815004 0.707669
0.824898 0.818717 0.710550
0.830682 0.820127 0.711543
0.839087 0.823845 0.714429
0.847495 0.827566 0.717317
0.855905 0.831289 0.720207
0.861698 0.832707 0.721210
0.870114 0.836436 0.724105
0.878280 0.840090 0.727108
0.641038 0.752659 0.656666
0.646790 0.754036 0.657627
0.655161 0.757721 0.660479
0.663534 0.761407 0.663332
0.671907 0.765093 0.666185
0.680282 0.768780 0.669040
0.688657 0.772469 0.671896
0.694414 0.773851 0.672862
0.702792 0.777542 0.675720
0.711171 0.781234 0.678579
0.719551 0.784927 0.681440
0.727932 0.788622 0.684302
0.733696 0.790011 0.685275
0.742081 0.793708 0.688140
0.750467 0.797407 0.691006
0.758854 0.801108 0.693874
0.767244 0.804811 0.696744
0.773016 0.806208 0.697725
0.781409 0.809914 0.700599
0.789805 0.813623 0.703474
0.798202 0.817333 0.706352
0.803982 0.818738 0.707341
0.812383 0.822453 0.710223
0.820787 0.826170 0.713107
0.829193 0.829889 0.715994
0.834983 0.831304 0.716992
0.843394 0.835028 0.719884
0.851807 0.838754 0.722778
0.860181 0.842470 0.725692
0.865772 0.843831 0.726788
0.873774 0.847438 0.729864
0.881779 0.851047 0.732944
0.889787 0.854659 0.736027
0.653628 0.767438 0.664884
0.662001 0.771125 0.667739
0.667757 0.772506 0.668703
0.676133 0.776195 0.671559
0.684510 0.779885 0.674417
0.692888 0.783576 0.677275
0.701267 0.787268 0.680135
0.707028 0.788655 0.681105
0.715410 0.792350 0.683968
0.723794 0.796046 0.686831
0.732179 0.799744 0.689697
0.740566 0.803444 0.692564
0.746335 0.804839 0.693542
0.754725 0.808542 0.696413
0.763117 0.812247 0.699285
0.771511 0.815954 0.702160
0.779907 0.819663 0.705036
0.785686 0.821067 0.706024
0.794086 0.824780 0.708904
0.802488 0.828495 0.711787
0.810893 0.832213 0.714672
0.816681 0.833626 0.715669
0.825090 0.837349 0.718559
0.833502 0.841074 0.721451
