tools/kachinova-light.cube
# KACHINOVA film grade - generated by tools/films.py
# Mirrors grade() in tools/media.py (minus per-frame grain).
LUT_3D_SIZE 5
DOMAIN_MIN 0.0 0.0 0.0
DOMAIN_MAX 1.0 1.0 1.0
0.090196 0.113725 0.152941
0.181225 0.173660 0.213052
0.271938 0.233280 0.272847
0.366998 0.297077 0.336444
0.455053 0.351299 0.386948
0.291031 0.350598 0.356034
0.379008 0.404742 0.406461
0.471593 0.463392 0.461107
0.564027 0.521890 0.515601
0.642780 0.564577 0.552076
0.486218 0.572755 0.531578
0.559943 0.610495 0.563370
0.636743 0.651393 0.598564
0.708944 0.689044 0.633139
0.777293 0.721416 0.660736
0.628686 0.737887 0.648147
0.690187 0.762748 0.667487
0.754601 0.789979 0.688473
0.816497 0.815004 0.707669
0.878280 0.840090 0.727108
0.729478 0.856423 0.714507
0.790271 0.881248 0.734443
0.847209 0.903520 0.753271
0.904373 0.926018 0.772327
0.961801 0.948781 0.791646
0.109706 0.133704 0.205478
0.200623 0.193527 0.265477
0.291238 0.253049 0.325174
0.383900 0.313569 0.384292
0.476679 0.372413 0.439132
0.307905 0.367061 0.403854
0.400610 0.425832 0.458621
0.493140 0.484426 0.513211
0.580426 0.537212 0.561460
0.657624 0.578176 0.596052
0.497609 0.583150 0.572774
0.574779 0.624086 0.607338
0.651054 0.664971 0.643544
0.723255 0.702622 0.678119
0.787868 0.730430 0.700168
0.636402 0.744585 0.685987
0.700770 0.771770 0.706927
0.762595 0.796724 0.726053
0.827153 0.824098 0.747182
0.885533 0.846676 0.765136
0.740152 0.865536 0.754039
0.797548 0.887858 0.772493
0.856967 0.912445 0.793373
0.914217 0.935029 0.812513
0.969334 0.955647 0.829953
0.129176 0.153643 0.257976
0.219987 0.213360 0.317868
0.315883 0.278279 0.382978
0.405572 0.334729 0.436522
0.498283 0.393504 0.491293
0.329551 0.388195 0.456057
0.422192 0.446901 0.510760
0.514671 0.505444 0.565299
0.595289 0.550830 0.605454
0.672461 0.591768 0.640020
0.512460 0.596757 0.616757
0.589610 0.637671 0.651300
0.665363 0.678549 0.688523
0.734084 0.712267 0.718669
0.798451 0.739451 0.739608
0.646972 0.753594 0.725414
0.711362 0.780801 0.746376
0.773221 0.805789 0.765536
0.835207 0.830903 0.784822
0.895217 0.855527 0.805163
0.747975 0.872285 0.791803
0.807257 0.896734 0.812545
0.864344 0.919156 0.831524
0.921684 0.941830 0.850754
0.976904 0.962550 0.868297
0.148609 0.173545 0.310436
0.239317 0.233159 0.370226
0.334372 0.296951 0.433818
0.427220 0.355864 0.488727
0.515069 0.409880 0.539025
0.351174 0.409305 0.508238
0.438959 0.463257 0.558472
0.536187 0.526447 0.617372
0.610141 0.564438 0.649437
0.687292 0.605354 0.683982
0.527303 0.610355 0.660731
0.604103 0.651253 0.695924
0.676304 0.688903 0.730499
0.744653 0.721276 0.758096
0.809042 0.748481 0.779056
0.657548 0.762609 0.764847
0.721964 0.789841 0.785835
0.783862 0.814868 0.805034
0.845647 0.839957 0.824476
0.904924 0.864402 0.845213
0.757640 0.881117 0.831811
0.816991 0.905635 0.852622
0.874160 0.928138 0.871682
0.929184 0.948663 0.889028
0.984511 0.969491 0.906678
0.168006 0.193410 0.362860
0.263991 0.258418 0.428059
0.356069 0.318136 0.486073
0.444048 0.372281 0.536500
0.536634 0.430932 0.591147
0.367978 0.425699 0.555988
0.460504 0.484290 0.610575
0.547788 0.537075 0.658822
0.624985 0.578036 0.693412
0.698416 0.615713 0.725604
0.542139 0.623946 0.704698
0.618413 0.664831 0.740904
0.690615 0.702482 0.775479
0.755229 0.730290 0.797529
0.817024 0.755214 0.816624
0.668131 0.771631 0.804288
0.732577 0.798894 0.825306
0.794518 0.823964 0.844547
0.855311 0.848788 0.864482
0.912247 0.871058 0.883309
0.767327 0.889971 0.871841
0.824341 0.912319 0.890747
0.881596 0.934908 0.909892
0.936719 0.955532 0.927338
0.992157 0.976471 0.945098
