tools/kachinova-light.cube
# KACHINOVA film grade - generated by tools/films.py
# Mirrors grade() in tools/media.py (minus per-frame grain).
LUT_3D_SIZE 9
DOMAIN_MIN 0.0 0.0 0.0
DOMAIN_MAX 1.0 1.0 1.0
0.090196 0.113725 0.152941
0.135752 0.143735 0.183038
0.181225 0.173660 0.213052
0.226619 0.203507 0.242986
0.271938 0.233280 0.272847
0.317189 0.262983 0.302638
0.366998 0.297077 0.336444
0.413452 0.326563 0.363928
0.455053 0.351299 0.386948
0.187469 0.229592 0.252850
0.232763 0.259339 0.282685
0.283364 0.294511 0.317960
0.326620 0.321494 0.344039
0.373053 0.350959 0.371502
0.419432 0.380371 0.398912
0.465763 0.409734 0.426273
0.512049 0.439053 0.453590
0.558296 0.468331 0.480867
0.291031 0.350598 0.356034
0.332647 0.375348 0.379069
0.379008 0.404742 0.406461
0.425322 0.434088 0.433805
0.471593 0.463392 0.461107
0.517827 0.492657 0.488370
0.564027 0.521890 0.515601
0.602442 0.542481 0.533378
0.642780 0.564577 0.552076
0.389672 0.463131 0.445740
0.435929 0.492420 0.473027
0.482150 0.521673 0.500278
0.525887 0.548171 0.524518
0.562768 0.567059 0.540433
0.599627 0.585926 0.556326
0.639940 0.607997 0.574999
0.676743 0.626833 0.590913
0.712847 0.645661 0.608203
0.486218 0.572755 0.531578
0.523091 0.591635 0.547484
0.559943 0.610495 0.563370
0.596779 0.629338 0.579241
0.636743 0.651393 0.598564
0.672844 0.670219 0.615852
0.708944 0.689044 0.633139
0.746456 0.708988 0.651188
0.777293 0.721416 0.660736
0.557089 0.653900 0.586279
0.593373 0.672730 0.603212
0.632842 0.694777 0.623502
0.668942 0.713603 0.640789
0.701563 0.728496 0.653648
0.732430 0.740928 0.663165
0.765930 0.755680 0.674587
0.796830 0.768144 0.684137
0.827753 0.780632 0.693710
0.628686 0.737887 0.648147
0.659315 0.750312 0.657965
0.690187 0.762748 0.667487
0.721075 0.775200 0.677024
0.754601 0.789979 0.688473
0.785534 0.802477 0.698056
0.816497 0.815004 0.707669
0.847495 0.827566 0.717317
0.878280 0.840090 0.727108
0.678841 0.797030 0.681355
0.709757 0.809511 0.690922
0.740701 0.822018 0.700515
0.771676 0.834558 0.710140
0.802687 0.847133 0.719802
0.833068 0.859544 0.729784
0.862697 0.871758 0.740143
0.892377 0.884022 0.750553
0.922112 0.896340 0.761017
0.729478 0.856423 0.714507
0.760503 0.869013 0.724183
0.790271 0.881248 0.734443
0.819919 0.893479 0.744820
0.847209 0.903520 0.753271
0.876965 0.915860 0.763757
0.904373 0.926018 0.772327
0.934257 0.938486 0.782940
0.961801 0.948781 0.791646
0.099956 0.123720 0.179215
0.145483 0.153700 0.209283
0.190928 0.183598 0.239269
0.236297 0.213419 0.269178
0.281592 0.243168 0.299015
0.332195 0.278341 0.334290
0.375452 0.305326 0.360371
0.421887 0.334793 0.387836
0.468267 0.364206 0.415247
0.197138 0.239495 0.279033
0.247784 0.274711 0.314352
0.292988 0.304368 0.344097
0.339864 0.334430 0.372367
0.381481 0.359183 0.395403
0.427843 0.388577 0.422796
0.474158 0.417924 0.450141
0.520431 0.447229 0.477444
0.566665 0.476496 0.504709
0.299471 0.358832 0.379947
0.345866 0.388260 0.407373
0.392210 0.417637 0.434748
0.438509 0.446968 0.462077
0.484767 0.476258 0.489365
0.530989 0.505512 0.516617
0.574726 0.532010 0.540857
0.611608 0.550899 0.556773
0.648467 0.569766 0.572666
0.398058 0.471311 0.469598
0.444302 0.500588 0.496873
0.490511 0.529829 0.524113
0.531586 0.553373 0.545120
0.571931 0.575475 0.563824
0.608784 0.594335 0.579711
0.645620 0.613179 0.595582
0.682215 0.632012 0.611903
0.721686 0.654060 0.632194
0.491915 0.577954 0.552177
0.528780 0.596826 0.568076
0.565626 0.615680 0.583956
0.605930 0.637742 0.602620
0.642214 0.656571 0.619553
0.678315 0.675397 0.636840
0.717784 0.697444 0.657130
0.750404 0.712337 0.669989
0.781270 0.724768 0.679506
0.562741 0.659080 0.606911
0.602213 0.681130 0.627203
0.638312 0.699955 0.644490
0.674414 0.718781 0.661778
0.708156 0.734153 0.674306
0.739028 0.746589 0.683827
0.769915 0.759040 0.693365
0.800822 0.771512 0.702922
0.834373 0.786315 0.714395
0.632453 0.741236 0.667186
0.663292 0.753664 0.676734
0.696787 0.768412 0.688151
0.727681 0.780870 0.697695
0.758597 0.793350 0.707261
0.789539 0.805857 0.716854
0.820514 0.818395 0.726478
0.851524 0.830970 0.736139
0.881904 0.843380 0.746119
0.682831 0.800395 0.700138
0.716375 0.815192 0.711604
0.747329 0.827710 0.721208
0.778315 0.840261 0.730844
0.809340 0.852849 0.740519
0.839107 0.865084 0.750778
0.866344 0.875071 0.759176
0.896042 0.887353 0.769604
0.925796 0.899691 0.780089
0.733503 0.859824 0.733325
0.764291 0.872351 0.743120
0.793907 0.884550 0.753465
0.823571 0.896799 0.763860
0.853289 0.909101 0.774307
0.880657 0.919218 0.782836
0.910496 0.931641 0.793405
0.937994 0.941889 0.802064
0.965564 0.952210 0.810795
0.109706 0.133704 0.205478
0.155205 0.163656 0.235518
0.200623 0.193527 0.265477
0.245966 0.223323 0.295361
0.291238 0.253049 0.325174
0.341819 0.288200 0.360428
0.383900 0.313569 0.384292
0.430315 0.343017 0.411738
0.476679 0.372413 0.439132
0.206799 0.249391 0.305208
0.257422 0.284583 0.340503
0.301853 0.313182 0.368799
0.348304 0.342666 0.396281
0.394701 0.372094 0.423707
0.436249 0.396778 0.446675
0.482549 0.426110 0.474005
0.528808 0.455401 0.501294
0.575030 0.484656 0.528547
0.307905 0.367061 0.403854
0.354282 0.396471 0.431262
0.400610 0.425832 0.458621
0.446895 0.455148 0.485935
0.493140 0.484426 0.513211
0.539350 0.513668 0.540452
0.580426 0.537212 0.561460
0.617300 0.556093 0.577367
0.657624 0.578176 0.596052
0.406438 0.479487 0.493452
0.452670 0.508751 0.520714
0.503666 0.542677 0.552352
0.540754 0.561794 0.568517
0.577620 0.580667 0.584416
0.614467 0.599521 0.600297
0.654771 0.621583 0.618961
0.691056 0.640413 0.635894
0.727156 0.659238 0.653182
0.497609 0.583150 0.572774
0.537938 0.605238 0.591463
0.574779 0.624086 0.607338
0.611582 0.642922 0.623252
0.651054 0.664971 0.643544
0.687154 0.683796 0.660831
0.723255 0.702622 0.678119
0.754378 0.715687 0.688756
0.787868 0.730430 0.700168
0.571582 0.667482 0.630903
0.607683 0.686308 0.648191
0.647151 0.708355 0.668480
0.681295 0.725077 0.683527
0.712132 0.737505 0.693075
0.743009 0.749945 0.702601
0.776521 0.764710 0.714035
0.807436 0.777189 0.723601
0.838378 0.789696 0.733193
0.636402 0.744585 0.685987
0.669888 0.759324 0.697395
0.700770 0.771770 0.706927
0.731671 0.784235 0.716478
0.762595 0.796724 0.726053
0.796167 0.811548 0.737546
0.827153 0.824098 0.747182
0.858176 0.836686 0.756856
0.885533 0.846676 0.765136
0.689443 0.806071 0.720814
0.720377 0.818569 0.730399
0.751341 0.831098 0.740013
0.782340 0.843661 0.749662
0.813127 0.856187 0.759456
0.842742 0.868385 0.769800
0.872405 0.880632 0.780193
0.899713 0.890690 0.788662
0.929487 0.903049 0.799167
0.740152 0.865536 0.754039
0.770325 0.877885 0.764110
0.797548 0.887858 0.772493
0.827230 0.900124 0.782905
0.856967 0.912445 0.793373
0.884355 0.922584 0.801922
0.914217 0.935029 0.812513
0.941739 0.945301 0.821196
0.969334 0.955647 0.829953
0.119446 0.143678 0.231732
0.164917 0.173602 0.261744
0.210309 0.203448 0.291677
0.255628 0.233219 0.321536
0.306252 0.268414 0.356834
0.350685 0.297014 0.385131
0.397138 0.326499 0.412614
0.438738 0.351234 0.435633
0.485085 0.380614 0.463011
0.216452 0.259278 0.331374
0.267052 0.294448 0.366647
0.310306 0.321431 0.392725
0.356738 0.350895 0.420188
0.403117 0.380306 0.447597
0.449447 0.409668 0.474957
0.495732 0.438985 0.502273
0.541978 0.468264 0.529549
0.588189 0.497507 0.556790
0.321129 0.379978 0.432163
0.362692 0.404676 0.455145
0.409005 0.434021 0.482488
0.455276 0.463324 0.509789
0.501509 0.492589 0.537052
0.547708 0.521821 0.564282
0.589594 0.545634 0.584857
0.626461 0.564507 0.600757
0.663308 0.583361 0.616638
0.419612 0.492353 0.521710
0.465832 0.521605 0.548960
0.509568 0.548102 0.573199
0.546449 0.566990 0.589114
0.583307 0.585856 0.605006
0.623620 0.607927 0.623679
0.660423 0.626763 0.639593
0.696526 0.645591 0.656883
0.735995 0.667637 0.677172
0.506771 0.591566 0.596165
0.543623 0.610425 0.612051
0.580459 0.629268 0.627921
0.620423 0.651323 0.647244
0.656524 0.670149 0.664532
0.692624 0.688974 0.681819
0.730136 0.708918 0.699868
0.760973 0.721346 0.709416
0.791849 0.733786 0.718942
0.577053 0.672660 0.651892
0.616522 0.694707 0.672181
0.652622 0.713532 0.689469
0.685243 0.728426 0.702328
0.718729 0.743165 0.713736
0.749610 0.755610 0.723267
0.780511 0.768075 0.732818
0.811434 0.780563 0.742392
0.842387 0.793080 0.751994
0.642996 0.750242 0.706645
0.673867 0.762679 0.716167
0.704755 0.775131 0.725705
0.738283 0.789910 0.737154
0.769216 0.802408 0.746738
0.800180 0.814936 0.756351
0.831178 0.827498 0.766000
0.861963 0.840023 0.775792
0.891577 0.852220 0.786135
0.693439 0.809442 0.739603
0.724383 0.821950 0.749197
0.757977 0.836797 0.760713
0.788989 0.849373 0.770375
0.816752 0.859478 0.778468
0.846382 0.871693 0.788828
0.876063 0.883958 0.799239
0.905799 0.896277 0.809704
0.933186 0.906414 0.818252
0.744187 0.868946 0.772866
0.773956 0.881182 0.783127
0.803604 0.893415 0.793505
0.830895 0.903456 0.801957
0.860652 0.915797 0.812445
0.890471 0.928200 0.822993
0.917946 0.938425 0.831630
0.945493 0.948722 0.840337
0.973114 0.959094 0.849120
0.129176 0.153643 0.257976
0.174620 0.183540 0.287961
0.219987 0.213360 0.317868
0.265281 0.243107 0.347704
0.315883 0.278279 0.382978
0.359139 0.305263 0.409058
0.405572 0.334729 0.436522
0.451952 0.364141 0.463932
0.498283 0.393504 0.491293
0.231472 0.274650 0.363040
0.276675 0.304306 0.392784
0.323550 0.334367 0.421053
0.365166 0.359118 0.444089
0.411528 0.388511 0.471480
0.457842 0.417858 0.498825
0.504113 0.447162 0.526127
0.550347 0.476428 0.553391
0.596547 0.505660 0.580622
0.329551 0.388195 0.456057
0.375894 0.417571 0.483432
0.422192 0.446901 0.510760
0.468450 0.476190 0.538048
0.514671 0.505444 0.565299
0.558407 0.531942 0.589538
0.595289 0.550830 0.605454
0.632148 0.569697 0.621347
0.672461 0.591768 0.640020
0.427984 0.500520 0.545555
0.474193 0.529761 0.572794
0.515267 0.553304 0.593801
0.555611 0.575406 0.612505
0.592464 0.594265 0.628391
0.629300 0.613109 0.644262
0.669264 0.635164 0.663585
0.705365 0.653990 0.680874
0.741465 0.672815 0.698160
0.512460 0.596757 0.616757
0.552778 0.618832 0.635434
0.589610 0.637671 0.651300
0.625894 0.656501 0.668233
0.665363 0.678549 0.688523
0.701463 0.697374 0.705810
0.734084 0.712267 0.718669
0.764951 0.724699 0.728186
0.798451 0.739451 0.739608
0.585892 0.681060 0.675883
0.621992 0.699885 0.693169
0.658094 0.718711 0.710458
0.691836 0.734083 0.722986
0.722708 0.746519 0.732508
0.753595 0.758971 0.742045
0.787122 0.773750 0.753494
0.818055 0.786247 0.763077
0.849018 0.798774 0.772689
0.646972 0.753594 0.725414
0.680467 0.768342 0.736831
0.711362 0.780801 0.746376
0.742278 0.793281 0.755942
0.773221 0.805789 0.765536
0.804196 0.818328 0.775161
0.835207 0.830903 0.784822
0.865588 0.843314 0.794803
0.895217 0.855527 0.805163
0.700057 0.815123 0.760285
0.731011 0.827642 0.769890
0.761998 0.840193 0.779527
0.793023 0.852783 0.789203
0.822791 0.865018 0.799462
0.852438 0.877249 0.809839
0.879728 0.887289 0.818290
0.909484 0.899629 0.828776
0.936891 0.909787 0.837345
0.747975 0.872285 0.791803
0.777591 0.884485 0.802150
0.807257 0.896734 0.812545
0.836976 0.909037 0.822994
0.864344 0.919156 0.831524
0.894185 0.931580 0.842094
0.921684 0.941830 0.850754
0.949255 0.952151 0.859487
0.976904 0.962550 0.868297
0.138897 0.163599 0.284211
0.184315 0.193469 0.314169
0.229656 0.223263 0.344051
0.274927 0.252987 0.373863
0.325507 0.288137 0.409116
0.372383 0.318200 0.437386
0.414001 0.342952 0.460423
0.460363 0.372347 0.487816
0.506678 0.401694 0.515161
0.241110 0.284522 0.389191
0.285540 0.313119 0.417486
0.331990 0.342602 0.444967
0.378385 0.372029 0.472392
0.424730 0.401406 0.499767
0.466232 0.426043 0.522688
0.512490 0.455334 0.549977
0.563509 0.489282 0.581638
0.607247 0.515781 0.605878
0.337967 0.396405 0.479946
0.384294 0.425765 0.507304
0.430578 0.455081 0.534618
0.476822 0.484358 0.561893
0.523032 0.513600 0.589133
0.564107 0.537144 0.610141
0.604452 0.559246 0.628845
0.641304 0.578106 0.644732
0.678141 0.596950 0.660603
0.441149 0.513377 0.573805
0.487348 0.542608 0.601033
0.524435 0.561725 0.617198
0.561301 0.580597 0.633097
0.598147 0.599451 0.648977
0.638451 0.621513 0.667641
0.674735 0.640342 0.684574
0.710836 0.659168 0.701861
0.750305 0.681215 0.722151
0.521619 0.605168 0.640144
0.558459 0.624016 0.656018
0.595262 0.642851 0.671932
0.634734 0.664901 0.692224
0.670833 0.683726 0.709511
0.706935 0.702552 0.726799
0.740677 0.717924 0.739327
0.771549 0.730360 0.748848
0.802435 0.742811 0.758385
0.591363 0.686238 0.696871
0.630831 0.708284 0.717160
0.664974 0.725007 0.732207
0.695813 0.737435 0.741755
0.729308 0.752182 0.753172
0.760202 0.764641 0.762716
0.791117 0.777121 0.772282
0.822060 0.789628 0.781874
0.853034 0.802166 0.791499
0.653568 0.759254 0.746075
0.684451 0.771701 0.755607
0.715352 0.784166 0.765159
0.748896 0.798962 0.776624
0.779849 0.811480 0.786228
0.810836 0.824031 0.795865
0.841860 0.836619 0.805539
0.871626 0.848853 0.815798
0.898863 0.858840 0.824196
0.704059 0.818501 0.779080
0.735024 0.831030 0.788695
0.766023 0.843594 0.798345
0.796811 0.856121 0.808140
0.826426 0.868320 0.818485
0.856091 0.880568 0.828879
0.885808 0.892870 0.839326
0.913175 0.902987 0.847854
0.943014 0.915410 0.858423
0.754009 0.877819 0.812794
0.783642 0.890036 0.823156
0.810916 0.900060 0.831591
0.840654 0.912382 0.842060
0.868044 0.922522 0.850610
0.897907 0.934969 0.861203
0.925430 0.945242 0.869887
0.953027 0.955590 0.878645
0.980702 0.966016 0.887482
0.148609 0.173545 0.310436
0.194000 0.203389 0.340368
0.239317 0.233159 0.370226
0.289940 0.268352 0.405522
0.334372 0.296951 0.433818
0.380824 0.326435 0.461300
0.427220 0.355864 0.488727
0.468769 0.380548 0.511695
0.515069 0.409880 0.539025
0.250740 0.294386 0.415335
0.298790 0.326062 0.445820
0.340424 0.350830 0.468873
0.386802 0.380240 0.496281
0.433130 0.409601 0.523640
0.479415 0.438918 0.550955
0.525660 0.468196 0.578231
0.571871 0.497439 0.605472
0.612947 0.520983 0.626480
0.351174 0.409305 0.508238
0.392689 0.433955 0.531172
0.438959 0.463257 0.558472
0.485191 0.492521 0.585734
0.536187 0.526447 0.617372
0.573275 0.545565 0.633538
0.610141 0.564438 0.649437
0.646988 0.583292 0.665318
0.687292 0.605354 0.683982
0.449514 0.521537 0.597642
0.493249 0.548033 0.621880
0.530129 0.566921 0.637794
0.570459 0.589009 0.656484
0.607300 0.607857 0.672359
0.644103 0.626693 0.688273
0.680206 0.645520 0.705563
0.719675 0.667567 0.725852
0.755776 0.686393 0.743140
0.527303 0.610355 0.660731
0.567611 0.632420 0.679398
0.604103 0.651253 0.695924
0.640204 0.670079 0.713212
0.676304 0.688903 0.730499
0.713816 0.708848 0.748548
0.744653 0.721276 0.758096
0.775529 0.733716 0.767622
0.809042 0.748481 0.779056
0.600202 0.694637 0.720861
0.636302 0.713462 0.738149
0.668923 0.728356 0.751008
0.702409 0.743095 0.762416
0.733291 0.755541 0.771948
0.764192 0.768006 0.781499
0.795116 0.780495 0.791073
0.828688 0.795318 0.802566
0.859673 0.807868 0.812202
0.657548 0.762609 0.764847
0.691055 0.777368 0.776276
0.721964 0.789841 0.785835
0.752898 0.802340 0.795419
0.783862 0.814868 0.805034
0.814861 0.827431 0.814683
0.845647 0.839957 0.824476
0.875261 0.852155 0.834820
0.904924 0.864402 0.845213
0.710683 0.824189 0.799769
0.741660 0.836729 0.809396
0.772672 0.849306 0.819059
0.802845 0.861655 0.829129
0.830067 0.871628 0.837513
0.859749 0.883893 0.847925
0.889486 0.896214 0.858391
0.916874 0.906352 0.866940
0.946735 0.918798 0.877531
0.757640 0.881117 0.831811
0.787289 0.893350 0.842190
0.816991 0.905635 0.852622
0.844340 0.915735 0.861132
0.874160 0.928138 0.871682
0.901636 0.938365 0.880320
0.929184 0.948663 0.889028
0.956807 0.959037 0.897813
0.984511 0.969491 0.906678
0.158312 0.183482 0.336652
0.203677 0.213300 0.366559
0.248970 0.243046 0.396393
0.299571 0.278217 0.431666
0.342825 0.305200 0.457744
0.389258 0.334664 0.485207
0.435637 0.364075 0.512616
0.481966 0.393438 0.539977
0.528252 0.422756 0.567293
0.260363 0.304243 0.441472
0.307236 0.334303 0.469740
0.353649 0.363748 0.497182
0.395212 0.388446 0.520165
0.441525 0.417791 0.547508
0.487796 0.447094 0.574810
0.534029 0.476360 0.602073
0.580229 0.505592 0.629303
0.622115 0.529404 0.649877
0.359578 0.417504 0.532115
0.405876 0.446834 0.559443
0.452132 0.476123 0.586730
0.498352 0.505375 0.613981
0.542088 0.531873 0.638219
0.578969 0.550761 0.654134
0.615828 0.569627 0.670027
0.656141 0.591698 0.688700
0.692944 0.610534 0.704614
0.457875 0.529693 0.621476
0.502420 0.556457 0.645280
0.539292 0.575337 0.661186
0.576144 0.594196 0.677072
0.612980 0.613039 0.692942
0.652944 0.635094 0.712265
0.689045 0.653920 0.729553
0.725145 0.672745 0.746840
0.762657 0.692689 0.764889
0.536458 0.618763 0.684114
0.573290 0.637601 0.699980
0.609574 0.656431 0.716913
0.649043 0.678478 0.737203
0.685143 0.697303 0.754490
0.717764 0.712197 0.767349
0.751250 0.726936 0.778757
0.782131 0.739381 0.788288
0.813031 0.751846 0.797838
0.605672 0.699814 0.741849
0.644887 0.721588 0.761848
0.675516 0.734013 0.771666
0.706388 0.746449 0.781188
0.737276 0.758902 0.790726
0.770803 0.773681 0.802175
0.801737 0.786179 0.811758
0.832700 0.798706 0.821372
0.863698 0.811269 0.831020
0.664148 0.768272 0.785512
0.695042 0.780731 0.795057
0.725959 0.793213 0.804624
0.756903 0.805721 0.814218
0.787878 0.818260 0.823843
0.818890 0.830836 0.833505
0.849272 0.843248 0.843487
0.878902 0.855462 0.853847
0.908583 0.867727 0.864258
0.714693 0.827574 0.818572
0.745681 0.840126 0.828210
0.776707 0.852716 0.837886
0.806475 0.864952 0.848147
0.836123 0.877184 0.858525
0.863414 0.887225 0.866977
0.893171 0.899566 0.877463
0.920580 0.909725 0.886034
0.950464 0.922193 0.896648
0.761276 0.884420 0.850834
0.790942 0.896670 0.861231
0.820663 0.908974 0.871681
0.848032 0.919094 0.880211
0.877874 0.931519 0.890783
0.905374 0.941770 0.899445
0.932947 0.952093 0.908179
0.960597 0.962493 0.916990
0.988329 0.972976 0.925883
0.168006 0.193410 0.362860
0.213346 0.223203 0.392741
0.263991 0.258418 0.428059
0.309194 0.288075 0.457803
0.356069 0.318136 0.486073
0.397686 0.342887 0.509108
0.444048 0.372281 0.536500
0.490362 0.401628 0.563845
0.536634 0.430932 0.591147
0.269227 0.313056 0.466173
0.315676 0.342538 0.493652
0.362070 0.371964 0.521077
0.408414 0.401340 0.548451
0.454713 0.430671 0.575780
0.500970 0.459961 0.603068
0.547191 0.489214 0.630319
0.590928 0.515712 0.654559
0.627809 0.534601 0.670474
0.367978 0.425699 0.555988
0.414261 0.455014 0.583301
0.460504 0.484290 0.610575
0.506713 0.513532 0.637815
0.547788 0.537075 0.658822
0.588132 0.559177 0.677526
0.624985 0.578036 0.693412
0.661821 0.596880 0.709283
0.698416 0.615713 0.725604
0.471029 0.542539 0.649715
0.508116 0.561656 0.665879
0.544981 0.580528 0.681777
0.585299 0.602603 0.700455
0.622131 0.621443 0.716321
0.658415 0.640272 0.733254
0.694516 0.659097 0.750541
0.733985 0.681145 0.770831
0.766605 0.696038 0.783690
0.542139 0.623946 0.704698
0.578942 0.642781 0.720612
0.618413 0.664831 0.740904
0.654513 0.683656 0.758190
0.690615 0.702482 0.775479
0.724357 0.717854 0.788007
0.755229 0.730290 0.797529
0.786116 0.742742 0.807066
0.817024 0.755214 0.816624
0.614511 0.708214 0.765840
0.648654 0.724937 0.780887
0.679493 0.737365 0.790435
0.712988 0.752113 0.801852
0.743882 0.764571 0.811397
0.774799 0.777052 0.820963
0.805742 0.789559 0.830556
0.836716 0.802098 0.840181
0.867727 0.814673 0.849842
0.668131 0.771631 0.804288
0.701652 0.786404 0.815730
0.732577 0.798894 0.825306
0.763531 0.811412 0.834910
0.794518 0.823964 0.844547
0.825543 0.836553 0.854223
0.855311 0.848788 0.864482
0.884958 0.861018 0.874859
0.912247 0.871058 0.883309
0.718706 0.830962 0.837378
0.749706 0.843527 0.847028
0.780495 0.856055 0.856823
0.810111 0.868255 0.867169
0.839776 0.880504 0.877564
0.869495 0.892806 0.888013
0.896863 0.902925 0.896542
0.926703 0.915349 0.907112
0.954202 0.925598 0.915772
0.767327 0.889971 0.871841
0.794602 0.899996 0.880277
0.824341 0.912319 0.890747
0.854141 0.924703 0.901276
0.881596 0.934908 0.909892
0.909120 0.945183 0.918578
0.936719 0.955532 0.927338
0.964396 0.965960 0.936176
0.992157 0.976471 0.945098
